DiomandLEE/tieta_dynamic_collision/anglesPub/src/plan_pick4.csv
time_from_start,base_x,base_y,base_theta,shoulder_pan_joint,shoulder_lift_joint,arm_elbow_joint,wrist_1_joint,wrist_2_joint,wrist_3_joint
0.0,0.968783,1.50335,0.024824,-0.0271772,-1.4137,-1.19861,-0.438758,0.00985937,3.05916
0.01,0.9687779999999999,1.503349764291743,0.024821631705333795,-0.027179684570887454,-1.4137008594602383,-1.1986130117133622,-0.4387615083475719,0.009862748865512484,3.059160427156885
0.02,0.968763,1.503349057166972,0.0248145268213352,-0.02718713828354983,-1.4137034378409534,-1.198622046853449,-0.4387720333902876,0.009872885462049941,3.0591617086275398
0.03,0.968738,1.503347878625687,0.0248026853480042,-0.027199561137987112,-1.4137077351421454,-1.1986371054202607,-0.43878957512814704,0.009889779789612366,3.0591638444119647
0.04,0.968703,1.503346228667888,0.024786107285340798,-0.02721695313419931,-1.413713751363814,-1.1986581874137965,-0.43881413356115034,0.009913431848199766,3.059166834510159
0.05,0.968658,1.5033441072935751,0.024764792633345,-0.027239314272186423,-1.4137214865059595,-1.1986852928340572,-0.4388457086892974,0.009943841637812133,3.059170678922124
0.06,0.9686029999999999,1.5033415145027482,0.024738741392016796,-0.027266644551948452,-1.4137309405685816,-1.1987184216810423,-0.43888430051258825,0.009981009158449471,3.059175377647858
0.07,0.968538,1.5033384502954072,0.0247079535613562,-0.027298943973485392,-1.4137421135516808,-1.1987575739547522,-0.4389299090310229,0.01002493441011178,3.0591809306873623
0.08,0.968463,1.5033349146715524,0.024672429141363195,-0.027336212536797248,-1.4137550054552566,-1.1988027496551867,-0.4389825342446014,0.010075617392799061,3.0591873380406365
0.09,0.968378,1.5033309076311834,0.024632168132037793,-0.027378450241884015,-1.4137696162793092,-1.1988539487823453,-0.4390421761533235,0.01013305810651131,3.05919459970768
0.1,0.9682829999999999,1.5033264291743005,0.024587170533379995,-0.0274256570887457,-1.4137859460238384,-1.198911171336229,-0.4391088347571896,0.010197256551248531,3.0592027156884942
0.11,0.968178,1.5033214793009038,0.024537436345389792,-0.0274778330773823,-1.4138039946888445,-1.198974417316837,-0.4391825100561994,0.010268212727010723,3.0592116859830782
0.12,0.968063,1.5033160580109928,0.02448296556806719,-0.027534978207793808,-1.4138237622743273,-1.1990436867241696,-0.439263202050353,0.010345926633797888,3.0592215105914318
0.13,0.967938,1.503310165304568,0.02442375820141219,-0.027597092479980236,-1.4138452487802868,-1.199118979558227,-0.4393509107396505,0.010430398271610021,3.0592321895135557
0.14,0.9678029999999999,1.503303801181629,0.02435981424542479,-0.027664175893941576,-1.4138684542067232,-1.1992002958190089,-0.43944563612409165,0.010521627640447123,3.059243722749449
0.15,0.9676579999999999,1.5032969656421762,0.024291133700104987,-0.027736228449677828,-1.4138933785536365,-1.1992876355065154,-0.4395473782036766,0.010619614740309197,3.0592561102991125
0.16,0.967503,1.5032896586862097,0.02421771656545279,-0.027813250147188995,-1.4139200218210264,-1.1993809986207464,-0.4396561369784054,0.010724359571196244,3.0592693521625463
0.17,0.9673379999999999,1.5032818803137287,0.024139562841468183,-0.027895240986475077,-1.413948384008893,-1.1994803851617017,-0.43977191244827796,0.010835862133108259,3.059283448339749
0.18,0.9671629999999999,1.5032736305247338,0.02405667252815118,-0.02798220096753607,-1.4139784651172365,-1.199585795129382,-0.43989470461329433,0.010954122426045244,3.059298398830722
0.19,0.966978,1.5032649093192252,0.02396904562550178,-0.028074130090371983,-1.4140102651460567,-1.199697228523787,-0.44002451347345445,0.011079140450007201,3.0593142036354655
0.2,0.9667830000000001,1.5032557166972025,0.02387668213351998,-0.02817102835498281,-1.414043784095354,-1.1998146853449163,-0.4401613390287584,0.01121091620499413,3.059330862753978
0.21,0.9665779999999999,1.5032460526586655,0.023779582052205775,-0.028272895761368544,-1.4140790219651276,-1.1999381655927701,-0.4403051812792062,0.01134944969100603,3.0593483761862608
0.22,0.9663629999999999,1.5032359172036147,0.023677745381559173,-0.0283797323095292,-1.414115978755378,-1.2000676692673486,-0.44045604022479773,0.011494740908042898,3.0593667439323133
0.23,0.9661379999999999,1.50322531033205,0.02357117212158017,-0.028491537999464765,-1.4141546544661054,-1.2002031963686517,-0.440613915865533,0.011646789856104739,3.059385965992136
0.24,0.965903,1.5032142320439712,0.023459862272268768,-0.028608312831175244,-1.4141950490973092,-1.2003447468966795,-0.44077880820141213,0.011805596535191549,3.0594060423657283
0.25,0.965658,1.5032026823393787,0.023343815833624968,-0.02873005680466064,-1.4142371626489902,-1.2004923208514318,-0.4409507172324351,0.011971160945303332,3.059426973053091
0.26,0.9654029999999999,1.503190661218272,0.023223032805648764,-0.02885676991992095,-1.414280995121148,-1.2006459182329086,-0.4411296429586018,0.012143483086440084,3.059448758054223
0.27,0.9651379999999999,1.5031781686806513,0.02309751318834016,-0.02898845217695617,-1.4143265465137822,-1.2008055390411099,-0.44131558537991233,0.012322562958601806,3.0594713973691254
0.28,0.9648629999999999,1.5031652047265165,0.022967256981699154,-0.02912510357576631,-1.4143738168268933,-1.200971183276036,-0.44150854449636656,0.0125084005617885,3.0594948909977973
0.29,0.9645779999999999,1.503151769355868,0.022832264185725752,-0.02926672411635136,-1.4144228060604813,-1.2011428509376865,-0.4417085203079647,0.012700995896000166,3.059519238940239
0.3,0.964283,1.5031378625687053,0.02269253480041995,-0.02941331379871133,-1.4144735142145461,-1.2013205420260618,-0.44191551281470653,0.012900348961236803,3.059544441196451
0.31,0.9639779999999999,1.5031234843650287,0.022548068825781746,-0.029564872622846208,-1.4145259412890876,-1.2015042565411613,-0.4421295220165922,0.01310645975749841,3.059570497766433
0.32,0.9636629999999999,1.5031086347448381,0.02239886626181114,-0.029721400588755997,-1.4145800872841057,-1.2016939944829859,-0.44235054791362166,0.013319328284784987,3.059597408650184
0.33,0.963338,1.5030933137081335,0.022244927108508134,-0.02988289769644071,-1.4146359521996006,-1.2018897558515347,-0.44257859050579496,0.013538954543096535,3.0596251738477056
0.34,0.9630029999999999,1.503077521254915,0.02208625136587273,-0.030049363945900333,-1.4146935360355724,-1.2020915406468082,-0.442813649793112,0.013765338532433054,3.059653793358997
0.35,0.9626579999999999,1.5030612573851823,0.021922839033904924,-0.030220799337134868,-1.414752838792021,-1.2022993488688063,-0.44305572577557273,0.013998480252794545,3.059683267184058
0.36,0.9623029999999999,1.5030445220989357,0.021754690112604717,-0.030397203870144315,-1.4148138604689462,-1.2025131805175289,-0.44330481845317743,0.014238379704181004,3.059713595322889
0.37,0.9619379999999998,1.503027315396175,0.021581804601972114,-0.03057857754492868,-1.4148766010663483,-1.202733035592976,-0.4435609278259258,0.014485036886592435,3.05974477777549
0.38,0.961563,1.5030096372769006,0.02140418250200711,-0.03076492036148796,-1.4149410605842272,-1.2029589140951478,-0.44382405389381807,0.014738451800028838,3.0597768145418613
0.39,0.9611779999999999,1.5029914877411121,0.021221823812709702,-0.030956232319822155,-1.4150072390225827,-1.2031908160240443,-0.4440941966568541,0.01499862444449021,3.059809705622002
0.4,0.9607829999999999,1.5029728667888094,0.021034728534079897,-0.03115251341993126,-1.4150751363814151,-1.2034287413796652,-0.44437135611503387,0.015265554819976556,3.059843451015913
0.41,0.960378,1.502953774419993,0.020842896666117692,-0.03135376366181528,-1.4151447526607244,-1.203672690162011,-0.44465553226835747,0.01553924292648787,3.0598780507235936
0.42,0.9599629999999999,1.5029342106346624,0.020646328208823086,-0.031559983045474214,-1.41521608786051,-1.203922662371081,-0.4449467251168248,0.015819688764024155,3.059913504745044
0.43,0.9595379999999999,1.5029141754328181,0.020445023162196083,-0.031771171570908065,-1.415289141980773,-1.2041786580068758,-0.445244934660436,0.016106892332585408,3.0599498130802645
0.44,0.9591029999999999,1.5028936688144596,0.02023898152623667,-0.03198732923811683,-1.415363915021512,-1.204440677069395,-0.445550160899191,0.016400853632171638,3.059986975729254
0.45,0.9586579999999999,1.502872690779587,0.020028203300944864,-0.0322084560471005,-1.4154404069827282,-1.2047087195586388,-0.4458624038330897,0.016701572662782833,3.0600249926920147
0.46,0.9582029999999999,1.5028512413282005,0.019812688486320656,-0.0324345519978591,-1.4155186178644215,-1.2049827854746074,-0.44618166346213234,0.017009049424419005,3.0600638639685447
0.47,0.9577379999999998,1.5028293204603,0.01959243708236405,-0.032665617090392604,-1.4155985476665913,-1.2052628748173002,-0.44650793978631864,0.017323283917080143,3.0601035895588447
0.48,0.9572629999999999,1.5028069281758858,0.01936744908907504,-0.03290165132470103,-1.4156801963892378,-1.205548987586718,-0.4468412328056488,0.017644276140766253,3.060144169462914
0.49,0.9567779999999999,1.5027840644749573,0.019137724506453634,-0.03314265470078436,-1.415763564032361,-1.2058411237828603,-0.44718154252012277,0.017972026095477336,3.0601856036807544
0.5,0.9562829999999999,1.5027607293575147,0.018903263334499827,-0.03338862721864261,-1.415848650595961,-1.206139283405727,-0.4475288689297404,0.018306533781213385,3.060227892212364
0.51,0.9557779999999998,1.5027369228235583,0.01866406557321362,-0.033639568878275766,-1.415935456080038,-1.2064434664553183,-0.447883212034502,0.018647799197974407,3.060271035057743
0.52,0.9552629999999999,1.502712644873088,0.01842013122259501,-0.03389547967968384,-1.4160239804845915,-1.2067536729316344,-0.44824457183440725,0.018995822345760402,3.060315032216893
0.53,0.9547379999999999,1.5026878955061038,0.018171460282644002,-0.03415635962286684,-1.4161142238096218,-1.207069902834675,-0.44861294832945636,0.019350603224571366,3.0603598836898116
0.54,0.9542029999999999,1.5026626747226055,0.017918052753360593,-0.034422208707824746,-1.416206186055129,-1.20739215616444,-0.44898834151964934,0.019712141834407303,3.0604055894765017
0.55,0.9536579999999999,1.5026369825225931,0.017659908634744783,-0.03469302693455756,-1.416299867221113,-1.2077204329209297,-0.44937075140498595,0.02008043817526821,3.0604521495769603
0.56,0.9531029999999998,1.5026108189060665,0.017397027926796572,-0.034968814303065296,-1.4163952673075735,-1.208054733104144,-0.44976017798546647,0.020455492247154084,3.060499563991189
0.57,0.9525379999999997,1.5025841838730263,0.017129410629515965,-0.03524957081334794,-1.416492386314511,-1.2083950567140826,-0.4501566212610907,0.020837304050064932,3.060547832719188
0.58,0.9519629999999999,1.502557077423472,0.01685705674290296,-0.0355352964654055,-1.4165912242419252,-1.2087414037507462,-0.45056008123185876,0.021225873584000743,3.060596955760957
0.59,0.9513779999999998,1.5025294995574037,0.016579966266957548,-0.03582599125923798,-1.416691781089816,-1.2090937742141343,-0.45097055789777063,0.021621200848961533,3.0606469331164954
0.6,0.9507829999999998,1.5025014502748215,0.01629813920167974,-0.03612165519484537,-1.4167940568581838,-1.209452168104247,-0.4513880512588263,0.022023285844947293,3.060697764785804
0.61,0.9501779999999997,1.5024729295757249,0.016011575547069525,-0.03642228827222767,-1.4168980515470282,-1.209816585421084,-0.45181256131502573,0.022432128571958025,3.060749450768882
0.62,0.9495629999999997,1.5024439374601148,0.015720275303126918,-0.03672789049138489,-1.4170037651563496,-1.210187026164646,-0.45224408806636895,0.022847729029993727,3.0608019910657305
0.63,0.9489379999999997,1.5024144739279905,0.015424238469851905,-0.037038461852317024,-1.4171111976861477,-1.2105634903349323,-0.45268263151285604,0.0232700872190544,3.0608553856763487
0.64,0.9483029999999997,1.5023845389793524,0.015123465047244494,-0.03735400235502407,-1.4172203491364226,-1.2109459779319431,-0.4531281916544868,0.023699203139140045,3.060909634600737
0.65,0.9476579999999999,1.5023541326142003,0.014817955035304685,-0.037674511999506034,-1.4173312195071741,-1.2113344889556787,-0.45358076849126144,0.024135076790250662,3.060964737838895
0.66,0.9470029999999998,1.5023232548325338,0.01450770843403247,-0.03799999078576291,-1.4174438087984025,-1.2117290234061389,-0.4540403620231798,0.024577708172386244,3.0610206953908228
0.67,0.9463379999999997,1.5022919056343538,0.014192725243427861,-0.0383304387137947,-1.417558117010108,-1.2121295812833237,-0.45450697225024206,0.0250270972855468,3.0610775072565204
0.68,0.9456629999999997,1.5022600850196595,0.013873005463490847,-0.038665855783601405,-1.4176741441422895,-1.2125361625872326,-0.45498059917244804,0.025483244129732328,3.061135173435988
0.69,0.9449779999999998,1.5022277929884513,0.01354854909422144,-0.039006241995183016,-1.4177918901949484,-1.2129487673178665,-0.4554612427897978,0.02594614870494282,3.061193693929226
0.7,0.9442829999999998,1.5021950295407291,0.013219356135619625,-0.039351597348539546,-1.4179113551680835,-1.213367395475225,-0.4559489031022914,0.026415811011178292,3.0612530687362334
0.71,0.9435779999999997,1.5021617946764931,0.012885426587685414,-0.039701921843670995,-1.418032539061696,-1.2137920470593082,-0.45644358010992875,0.02689223104843872,3.0613132978570103
0.72,0.9428629999999997,1.5021280883957429,0.012546760450418802,-0.040057215480577356,-1.418155441875785,-1.2142227220701156,-0.4569452738127099,0.027375408816724137,3.0613743812915577
0.73,0.9421379999999997,1.5020939106984788,0.01220335772381979,-0.04041747825925863,-1.4182800636103505,-1.214659420507648,-0.4574539842106348,0.027865344316034515,3.061436319039875
0.74,0.9414029999999997,1.5020592615847006,0.011855218407888377,-0.04078271017971481,-1.4184064042653932,-1.2151021423719046,-0.45796971130370356,0.028362037546369866,3.061499111101962
0.75,0.9406579999999997,1.5020241410544086,0.011502342502624564,-0.04115291124194592,-1.4185344638409125,-1.2155508876628858,-0.45849245509191616,0.028865488507730186,3.0615627574778186
0.76,0.9399029999999997,1.5019885491076024,0.011144730008028354,-0.04152808144595193,-1.4186642423369085,-1.2160056563805919,-0.45902221557527245,0.029375697200115475,3.0616272581674453
0.77,0.9391379999999996,1.5019524857442823,0.010782380924099737,-0.04190822079173286,-1.4187957397533815,-1.2164664485250223,-0.4595589927537726,0.02989266362352574,3.061692613170842
0.78,0.9383629999999996,1.5019159509644482,0.010415295250838721,-0.042293329279288715,-1.4189289560903309,-1.2169332640961774,-0.4601027866274165,0.030416387777960983,3.0617588224880086
0.79,0.9375779999999996,1.5018789447681002,0.010043472988245306,-0.04268340690861947,-1.4190638913477573,-1.217406103094057,-0.4606535971962042,0.030946869663421188,3.061825886118945
0.8,0.9367829999999997,1.501841467155238,0.009666914136319496,-0.04307845367972514,-1.4192005455256604,-1.2178849655186612,-0.46121142446013563,0.03148410927990636,3.0618938040636516
0.81,0.9359779999999995,1.501803518125862,0.00928561869506128,-0.04347846959260573,-1.4193389186240402,-1.21836985136999,-0.461776268419211,0.03202810662741651,3.0619625763221276
0.82,0.9351629999999995,1.5017650976799721,0.008899586664470667,-0.04388345464726123,-1.419479010642897,-1.2188607606480435,-0.46234812907343004,0.032578861705951624,3.062032202894374
0.83,0.9343379999999997,1.501726205817568,0.008508818044547653,-0.044293408843691644,-1.4196208215822304,-1.2193576933528214,-0.46292700642279294,0.03313637451551171,3.06210268378039
0.84,0.9335029999999995,1.5016868425386498,0.008113312835292241,-0.04470833218189697,-1.4197643514420406,-1.219860649484324,-0.46351290046729965,0.03370064505609677,3.062174018980176
0.85,0.9326579999999995,1.501647007843218,0.007713071036704428,-0.045128224661877214,-1.4199096002223275,-1.2203696290425512,-0.46410581120695005,0.03427167332770679,3.0622462084937316
0.86,0.9318029999999996,1.501606701731272,0.00730809264878421,-0.045553086283632374,-1.4200565679230914,-1.220884632027503,-0.46470573864174436,0.034849459330341795,3.0623192523210574
0.87,0.9309379999999996,1.501565924202812,0.006898377671531593,-0.045982917047162446,-1.420205254544332,-1.2214056584391793,-0.4653126827716824,0.035434003064001775,3.0623931504621527
0.88,0.9300629999999995,1.501524675257838,0.006483926104946576,-0.046417716952467436,-1.4203556600860492,-1.2219327082775802,-0.4659266435967642,0.036025304528686714,3.0624679029170183
0.89,0.9291779999999995,1.50148295489635,0.006064737949029167,-0.04685748599954733,-1.420507784548243,-1.2224657815427058,-0.46654762111698983,0.03662336372439662,3.0625435096856535
0.9,0.9282829999999995,1.5014407631183482,0.005640813203779351,-0.04730222418840215,-1.4206616279309139,-1.2230048782345557,-0.4671756153323593,0.0372281806511315,3.0626199707680586
0.91,0.9273779999999995,1.5013980999238323,0.005212151869197134,-0.04775193151903188,-1.4208171902340614,-1.2235499983531304,-0.4678106262428725,0.03783975530889136,3.062697286164234
0.92,0.9264629999999995,1.5013549653128022,0.004778753945282516,-0.04820660799143652,-1.420974471457686,-1.2241011418984296,-0.4684526538485295,0.03845808769767619,3.062775455874179
0.93,0.9255379999999995,1.5013113592852583,0.004340619432035497,-0.048666253605616085,-1.421133471601787,-1.2246583088704532,-0.46910169814933034,0.039083177817485985,3.062854479897894
0.94,0.9246029999999994,1.5012672818412005,0.0038977483294560817,-0.049130868361570545,-1.421294190666365,-1.2252214992692019,-0.4697577591452749,0.039715025668320754,3.062934358235379
0.95,0.9236579999999994,1.5012227329806287,0.0034501406375442596,-0.04960045225929994,-1.4214566286514196,-1.2257907130946748,-0.47042083683636327,0.040353631250180495,3.0630150908866334
0.96,0.9227029999999994,1.5011777127035428,0.002997796356300055,-0.05007500529880423,-1.421620785556951,-1.2263659503468725,-0.47109093122259543,0.04099899456306518,3.063096677851658
0.97,0.9217379999999994,1.5011322210099431,0.0025407154857234404,-0.05055452748008344,-1.421786661382959,-1.2269472110257944,-0.4717680423039714,0.04165111560697486,3.0631791191304525
0.98,0.9207629999999993,1.5010862578998292,0.002078898025814421,-0.05103901880313757,-1.421954256129444,-1.227534495131441,-0.4724521700804912,0.042309994381909515,3.063262414723017
0.99,0.919777981279407,1.5010398224906816,0.0016123338758377134,-0.05152848768938038,-1.4221235730143267,-1.2281277258286296,-0.4731433276878236,0.04297564327440767,3.063346566228677
1.0,0.918782938063181,1.5009929145102554,0.0011410198997755883,-0.05202293672235631,-1.4222946130302907,-1.22872687798036,-0.47384151917813927,0.04364806610124036,3.0634315741408034
1.01,0.9177778948469549,1.5009455351133154,0.0006649693055608187,-0.05252235487652131,-1.4224673719667318,-1.229332051500228,-0.47454672736359876,0.0443272466529223,3.063517436366699
1.02,0.916762851630729,1.5008976842998616,0.00018418209319344728,-0.053026742151875327,-1.4226418498236493,-1.2299432463882325,-0.475258952244202,0.045013184929453415,3.0636041529063647
1.03,0.915737808414503,1.5008493620698935,-0.0003013417373265489,-0.05353609854841838,-1.4228180466010438,-1.2305604626443747,-0.47597819381994905,0.04570588093083374,3.0636917237598
1.04,0.9147027651982769,1.5008005684234114,-0.00079160218599919,-0.0540504240661505,-1.4229959622989148,-1.2311837002686539,-0.47670445209083995,0.0464053346570633,3.0637801489270053
1.05,0.9136577219820508,1.5007513033604154,-0.0012865992528244556,-0.05456971870507166,-1.4231755969172628,-1.2318129592610703,-0.4774377270568746,0.04711154610814207,3.0638694284079806
1.06,0.9126026787658248,1.5007015668809056,-0.0017863329378023116,-0.05509398246518183,-1.4233569504560877,-1.232448239621624,-0.478178018718053,0.04782451528407,3.0639595622027267
1.07,0.9115376355495988,1.5006513589848813,-0.002290803240932812,-0.055623215346481056,-1.423540022915389,-1.2330895413503147,-0.4789253270743753,0.04854424218484717,3.064050550311241
1.08,0.9104625923333727,1.5006006796723435,-0.0028000101622159446,-0.05615741734896933,-1.4237248142951673,-1.2337368644471427,-0.47967965212584135,0.049270726810473564,3.0641423927335265
1.09,0.9093775491171466,1.5005495289432913,-0.0033139537016516956,-0.056696588472646636,-1.423911324595422,-1.2343902089121077,-0.4804409938724511,0.050003969160949145,3.064235089469581
1.1,0.9082825059009206,1.5004979067977255,-0.003832633859240055,-0.05724072871751297,-1.424099553816154,-1.2350495747452102,-0.4812093523142047,0.05074396923627393,3.064328640519406
1.11,0.9071774626846947,1.5004458132356455,-0.004356050634981044,-0.05778983808356835,-1.4242895019573625,-1.2357149619464496,-0.4819847274511021,0.051490727036447914,3.0644230458830006
1.12,0.9060624194684684,1.5003932482570514,-0.004884204028874678,-0.05834391657081279,-1.4244811690190478,-1.2363863705158264,-0.4827671192831433,0.052244242561471144,3.064518305560365
1.13,0.9049373762522424,1.5003402118619436,-0.00541709404092092,-0.05890296417924626,-1.4246745550012099,-1.2370638004533403,-0.4835565278103283,0.053004515811343564,3.0646144195514995
1.1400000000000001,0.9038023330360164,1.5002867040503216,-0.005954720671119765,-0.05946698090886874,-1.4248696599038486,-1.2377472517589911,-0.484352953032657,0.05377154678606516,3.064711387856404
1.15,0.9026572898197904,1.5002327248221858,-0.006497083919471258,-0.06003596675968029,-1.4250664837269644,-1.2384367244327794,-0.4851563949501296,0.054545335485636004,3.0648092104750777
1.16,0.9015022466035645,1.500178274177536,-0.007044183785975364,-0.06060992173168087,-1.4252650264705569,-1.2391322184747051,-0.48596685356274594,0.055325881910056045,3.0649078874075224
1.17,0.9003372033873384,1.500123352116372,-0.007596020270632092,-0.06118884582487048,-1.425465288134626,-1.2398337338847676,-0.48678432887050604,0.056113186059325276,3.065007418653736
1.18,0.8991621601711124,1.5000679586386942,-0.008152593373441427,-0.061772739039249125,-1.4256672687191718,-1.2405412706629675,-0.48760882087341,0.05690724793344371,3.06510780421372
1.19,0.8979771169548862,1.5000120937445023,-0.008713903094403425,-0.06236160137481685,-1.4258709682241943,-1.2412548288093044,-0.4884403295714577,0.057708067532411395,3.0652090440874735
1.2,0.8967820737386603,1.4999557574337965,-0.009279949433518052,-0.06295543283157362,-1.4260763866496942,-1.2419744083237787,-0.4892788549646493,0.05851564485622831,3.065311138274998
1.21,0.8955770305224342,1.4998989497065764,-0.009850732390785261,-0.06355423340951938,-1.4262835239956702,-1.2427000092063898,-0.4901243970529846,0.05932997990489436,3.065414086776291
1.22,0.8943619873062081,1.4998416705628428,-0.010426251966205086,-0.06415800310865417,-1.4264923802621232,-1.2434316314571383,-0.49097695583646367,0.060151072678409606,3.0655178895913546
1.23,0.8931369440899821,1.4997839200025949,-0.011006508159777564,-0.06476674192897804,-1.426702955449053,-1.244169275076024,-0.49183653131508653,0.060978923176774114,3.065622546720188
1.24,0.8919019008737561,1.4997256980258333,-0.011591500971502662,-0.06538044987049094,-1.4269152495564597,-1.2449129400630472,-0.49270312348885326,0.061813531399987826,3.065728058162791
1.25,0.89065685765753,1.4996670046325575,-0.012181230401380382,-0.06599912693319289,-1.4271292625843428,-1.2456626264182071,-0.4935767323577637,0.06265489734805074,3.0658344239191644
1.26,0.8894018144413041,1.4996078398227677,-0.012775696449410722,-0.06662277311708387,-1.427344994532703,-1.2464183341415045,-0.494457357921818,0.06350302102096285,3.0659416439893077
1.27,0.888136771225078,1.499548203596464,-0.013374899115593692,-0.06725138842216388,-1.4275624454015396,-1.2471800632329388,-0.49534500018101607,0.06435790241872419,3.0660497183732205
1.28,0.8868617280088519,1.499488095953646,-0.013978838399929288,-0.06788497284843295,-1.4277816151908533,-1.2479478136925104,-0.49623965913535795,0.06521954154133473,3.0661586470709032
1.29,0.8855766847926259,1.4994275168943143,-0.01458751430241751,-0.06852352639589106,-1.4280025039006436,-1.2487215855202192,-0.49714133478484357,0.06608793838879448,3.066268430082356
1.3,0.8842816415763999,1.4993664664184687,-0.015200926823058344,-0.06916704906453819,-1.428225111530911,-1.2495013787160654,-0.49805002712947305,0.06696309296110343,3.0663790674075786
1.31,0.8829765983601738,1.4993049445261089,-0.015819075961851805,-0.06981554085437437,-1.4284494380816548,-1.2502871932800486,-0.4989657361692463,0.06784500525826159,3.0664905590465708
1.32,0.8816615551439478,1.4992429512172352,-0.016441961718797898,-0.07046900176539961,-1.4286754835528754,-1.251079029212169,-0.4998884619041633,0.06873367528026897,3.0666029049993337
1.33,0.8803365119277218,1.4991804864918477,-0.0170695840938966,-0.07112743179761385,-1.428903247944573,-1.2518768865124263,-0.5008182043342241,0.06962910302712555,3.066716105265866
1.34,0.8790014687114956,1.4991175503499459,-0.017701943087147943,-0.07179083095101717,-1.4291327312567472,-1.2526807651808212,-0.5017549634594287,0.07053128849883135,3.066830159846168
1.35,0.8776564254952697,1.4990541427915303,-0.018339038698551895,-0.07245919922560952,-1.4293639334893982,-1.2534906652173532,-0.5026987392797772,0.07144023169538634,3.0669450687402398
1.3599999999999999,0.8763013822790436,1.4989902638166006,-0.01898087092810847,-0.07313253662139088,-1.429596854642526,-1.2543065866220222,-0.5036495317952694,0.07235593261679053,3.067060831948082
1.37,0.8749363390628175,1.498925913425157,-0.019627439775817674,-0.07381084313836131,-1.4298314947161304,-1.2551285293948284,-0.5046073410059053,0.07327839126304395,3.067177449469694
1.38,0.8735612958465915,1.4988610916171994,-0.020278745241679497,-0.07449411877652076,-1.4300678537102118,-1.2559564935357719,-0.5055721669116852,0.07420760763414656,3.0672949213050753
1.3900000000000001,0.8721762526303655,1.4987957983927276,-0.020934787325693965,-0.07518236353586928,-1.43030593162477,-1.2567904790448527,-0.5065440095126087,0.07514358173009843,3.067413247454227
1.4,0.8707812235544151,1.4987300335955946,-0.021595573356123193,-0.0758755755718145,-1.4305457290291632,-1.2576304879165299,-0.5075228711328179,0.07608632626080947,3.0675324282001233
1.41,0.8693762036373452,1.4986637972729233,-0.022261100885763947,-0.07657375558384122,-1.4307872457515678,-1.2584765195489058,-0.5085087510709216,0.07703583696217652,3.0676524634573665
1.42,0.8679611837202753,1.498597089524033,-0.022931365199001547,-0.07727690477818018,-1.4310304814298358,-1.259328572673377,-0.5095016478486171,0.07799210565102711,3.0677733530459665
1.43,0.8665361638032053,1.4985299103489242,-0.023606366295835984,-0.0779850231548314,-1.4312754360639663,-1.2601866472899426,-0.510501561465904,0.07895513232736122,3.0678950969659238
1.44,0.8651011438861352,1.4984622597475965,-0.024286104176267254,-0.07869811071379489,-1.43152210965396,-1.2610507433986031,-0.5115084919227825,0.07992491699117885,3.0680176952172378
1.45,0.8636561239690653,1.4983941377200503,-0.02497057884029536,-0.0794161674550706,-1.4317705021998168,-1.2619208609993586,-0.5125224392192524,0.08090145964248002,3.068141147799909
1.46,0.8622011040519953,1.4983255442662853,-0.02565979028792032,-0.0801391933786586,-1.4320206137015365,-1.262797000092209,-0.5135434033553141,0.08188476028126476,3.0682654547139374
1.47,0.8607360841349254,1.4982564793863014,-0.026353738519142113,-0.08086718848455884,-1.4322724441591193,-1.263679160677154,-0.5145713843309674,0.08287481890753298,3.068390615959323
1.48,0.8592610642178555,1.498186943080099,-0.02705242353396073,-0.08160015277277131,-1.432525993572565,-1.2645673427541941,-0.5156063821462121,0.08387163552128474,3.0685166315360655
1.49,0.8577760443007856,1.4981169353476778,-0.02775584533237619,-0.08233808624329605,-1.4327812619418734,-1.265461546323329,-0.5166483968010485,0.08487521012252004,3.068643501444165
1.5,0.8562810243837156,1.498046456189038,-0.028464003914388476,-0.08308098889613304,-1.433038249267045,-1.2663617713845587,-0.5176974282954763,0.08588554271123885,3.0687712256836215
1.51,0.8547760044666456,1.4979755056041792,-0.02917689927999763,-0.08382886073128229,-1.4332969555480795,-1.2672680179378832,-0.5187534766294957,0.08690263328744122,3.0688998042544346
1.52,0.8532609845495758,1.4979040835931021,-0.029894531429203598,-0.0845817017487438,-1.4335573807849769,-1.268180285983303,-0.5198165418031068,0.08792648185112711,3.0690292371566055
1.53,0.8517359646325058,1.497832190155806,-0.03061690036200641,-0.08533951194851754,-1.4338195249777375,-1.269098575520817,-0.5208866238163095,0.08895708840229652,3.069159524390133
1.54,0.8502009447154358,1.4977598252922915,-0.03134400607840606,-0.08610229133060354,-1.434083388126361,-1.2700228865504264,-0.5219637226691036,0.08999445294094947,3.069290665955018
1.55,0.8486559247983658,1.497686989002558,-0.032075848578402524,-0.08687003989500178,-1.4343489702308472,-1.2709532190721302,-0.5230478383614893,0.09103857546708594,3.0694226618512594
1.56,0.8471009048812959,1.4976136812866059,-0.032812427861995855,-0.08764275764171228,-1.4346162712911967,-1.2718895730859292,-0.5241389708934665,0.09208945598070593,3.0695555120788587
1.5699999999999998,0.8455358849642258,1.4975399021444349,-0.03355374392918603,-0.08842044457073506,-1.4348852913074093,-1.272831948591823,-0.5252371202650354,0.0931470944818095,3.0696892166378142
1.58,0.843960865047156,1.4974656515760456,-0.03429979677997303,-0.08920310068207007,-1.4351560302794846,-1.2737803455898118,-0.5263422864761959,0.09421149097039658,3.0698237755281275
1.5899999999999999,0.842375845130086,1.4973909295814374,-0.03505058641435688,-0.08999072597571735,-1.435428488207423,-1.2747347640798952,-0.5274544695269479,0.09528264544646718,3.069959188749797
1.6,0.840780825213016,1.4973157361606102,-0.03580611283233753,-0.09078332045167684,-1.4357026650912244,-1.2756952040620735,-0.5285736694172914,0.0963605579100213,3.070095456302824
1.6099999999999999,0.8391758052959462,1.4972400713135645,-0.036566376033915035,-0.09158088410994861,-1.4359785609308886,-1.2766616655363467,-0.5296998861472265,0.09744522836105893,3.070232578187208
1.62,0.8375607853788761,1.4971639350403003,-0.0373313760190894,-0.09238341695053263,-1.4362561757264158,-1.2776341485027147,-0.5308331197167533,0.09853665679958014,3.07037055440295
1.63,0.8359357654618063,1.4970873273408172,-0.03810111278786058,-0.0931909189734289,-1.4365355094778063,-1.2786126529611777,-0.5319733701258715,0.09963484322558486,3.0705093849500478
1.6400000000000001,0.8343007455447363,1.4970102482151155,-0.03887558634022862,-0.09400339017863744,-1.4368165621850595,-1.2795971789117355,-0.5331206373745814,0.10073978763907313,3.0706490698285025
1.65,0.8326557256276663,1.496932697663195,-0.03965479667619349,-0.09482083056615824,-1.437099333848176,-1.2805877263543883,-0.5342749214628828,0.10185149004004491,3.070789609038315
1.6600000000000001,0.8310007057105964,1.4968546756850558,-0.04043874379575518,-0.09564324013599126,-1.4373838244671548,-1.2815842952891356,-0.5354362223907757,0.10296995042850023,3.0709310025794845
1.67,0.8293356857935265,1.4967761822806978,-0.0412274276989137,-0.09647061888813653,-1.4376700340419972,-1.282586885715978,-0.5366045401582602,0.10409516880443903,3.071073250452011
1.6800000000000002,0.8276606658764566,1.4966972174501212,-0.04202084838566907,-0.09730296682259407,-1.4379579625727024,-1.2835954976349153,-0.5377798747653363,0.1052271451678614,3.071216352655894
1.69,0.8259756459593866,1.496617781193326,-0.04281900585602129,-0.09814028393936386,-1.4382476100592705,-1.2846101310459475,-0.5389622262120041,0.10636587951876732,3.0713603091911343
1.7,0.8242806260423167,1.4965378735103119,-0.04362190010997036,-0.09898257023844592,-1.4385389765017016,-1.2856307859490743,-0.5401515944982632,0.10751137185715677,3.0715051200577324
1.71,0.8225756111902017,1.4964573958978378,-0.04442954814541199,-0.09982981924153629,-1.4388320627187199,-1.2866574652122822,-0.541347973138305,0.10866361950507974,3.071650785662597
1.72,0.8208606093980599,1.4963761914897693,-0.04524197706437845,-0.10068202066732412,-1.4391268700262727,-1.2876901734453268,-0.542551351853351,0.10982261824580314,3.0717973066597644
1.73,0.8191356076059182,1.4962945135871046,-0.04605914317325741,-0.10153919119244287,-1.4394233963250762,-1.2887289032944291,-0.5437617473465751,0.11098837498961454,3.0719446820058764
1.74,0.8174006058137764,1.4962123621898444,-0.04688104647204889,-0.10240133081689257,-1.4397216416151306,-1.2897736547595893,-0.5449791596179774,0.11216088973651396,3.0720929117009335
1.75,0.8156556040216346,1.4961297372979878,-0.04770768696075285,-0.10326843954067316,-1.4400216058964355,-1.2908244278408068,-0.5462035886675576,0.11334016248650136,3.0722419957449354
1.76,0.8139006022294927,1.4960466389115354,-0.04853906463936936,-0.10414051736378473,-1.4403232891689908,-1.2918812225380822,-0.5474350344953158,0.11452619323957682,3.072391934137882
1.77,0.8121356004373508,1.495963067030487,-0.04937517950789836,-0.10501756428622722,-1.4406266914327972,-1.292944038851415,-0.5486734971012523,0.11571898199574025,3.072542726879773
1.78,0.8103605986452092,1.4958790216548425,-0.050216031566339844,-0.10589958030800062,-1.440931812687854,-1.2940128767808057,-0.5499189764853668,0.11691852875499167,3.0726943739706103
1.79,0.8085755968530673,1.4957945027846022,-0.05106162081469385,-0.10678656542910496,-1.4412386529341612,-1.2950877363262538,-0.5511714726476593,0.11812483351733113,3.0728468754103915
1.8,0.8067805950609255,1.4957095104197657,-0.051911947252960375,-0.10767851964954026,-1.4415472121717194,-1.2961686174877598,-0.55243098558813,0.11933789628275862,3.073000231199118
1.81,0.8049755932687837,1.4956240445603335,-0.05276701088113937,-0.10857544296930645,-1.4418574904005281,-1.2972555202653233,-0.5536975153067787,0.12055771705127406,3.0731544413367895
1.8199999999999998,0.8031605914766419,1.4955381052063053,-0.05362681169923088,-0.10947733538840355,-1.4421694876205875,-1.2983484446589444,-0.5549710618036054,0.1217842958228775,3.0733095058234055
1.83,0.8013355896845001,1.495451692357681,-0.05449134970723493,-0.11038419690683166,-1.4424832038318975,-1.2994473906686232,-0.5562516250786103,0.12301763259756902,3.073465424658967
1.8399999999999999,0.7995005878923584,1.4953648060144609,-0.05536062490515145,-0.11129602752459064,-1.4427986390344585,-1.3005523582943597,-0.5575392051317932,0.12425772737534849,3.0736221978434735
1.85,0.7976555861002166,1.4952774461766443,-0.05623463729298049,-0.11221282724168058,-1.4431157932282694,-1.3016633475361536,-0.5588338019631542,0.125504580156216,3.073779825376924
1.8599999999999999,0.7958005843080747,1.4951896128442321,-0.057113386870722045,-0.11313459605810144,-1.4434346664133315,-1.3027803583940054,-0.5601354155726933,0.1267581909401715,3.0739383072593203
1.87,0.7939355825159329,1.4951013060172238,-0.0579968736383761,-0.11406133397385324,-1.4437552585896443,-1.303903390867915,-0.5614440459604105,0.12801855972721501,3.0740976434906617
1.88,0.7920605807237912,1.4950125256956195,-0.058885097595942654,-0.11499304098893595,-1.4440775697572072,-1.3050324449578818,-0.5627596931263057,0.12928568651734654,3.074257834070947
1.8900000000000001,0.7901755789316494,1.4949232718794194,-0.059778058743421736,-0.11592971710334962,-1.4444015999160211,-1.3061675206639065,-0.564082357070379,0.13055957131056609,3.074418879000178
1.9,0.7882805771395076,1.4948335445686232,-0.060675757080813304,-0.1168713623170942,-1.4447273490660857,-1.3073086179859887,-0.5654120377926304,0.1318402141068736,3.074580778278354
1.9100000000000001,0.7863755753473658,1.494743343763231,-0.06157819260811738,-0.11781797663016973,-1.4450548172074007,-1.3084557369241288,-0.5667487352930599,0.13312761490626915,3.074743531905474
1.92,0.784460573555224,1.4946526694632427,-0.06248536532533394,-0.11876956004257615,-1.4453840043399668,-1.3096088774783263,-0.5680924495716674,0.1344217737087527,3.07490713988154
1.9300000000000002,0.7825355717630822,1.4945615216686585,-0.06339727523246305,-0.11972611255431356,-1.4457149104637832,-1.3107680396485817,-0.569443180628453,0.13572269051432428,3.0750716022065507
1.94,0.7806005699709404,1.4944699003794786,-0.06431392232950463,-0.12068763416538185,-1.4460475355788502,-1.3119332234348944,-0.5708009284634167,0.13703036532298382,3.075236918880506
1.95,0.7786555681787987,1.4943778055957022,-0.06523530661645872,-0.12165412487578109,-1.446381879685168,-1.3131044288372649,-0.5721656930765584,0.13834479813473138,3.075403089903407
1.96,0.7767005663866569,1.4942852373173303,-0.06616142809332536,-0.12262558468551128,-1.4467179427827364,-1.3142816558556931,-0.5735374744678783,0.13966598894956697,3.075570115275252
1.97,0.774735564594515,1.4941921955443622,-0.06709228676010444,-0.12360201359457235,-1.4470557248715554,-1.3154649044901787,-0.5749162726373761,0.14099393776749053,3.075737994996042
1.98,0.7727606670467535,1.4940983249444733,-0.0680280558032335,-0.12458327450867179,-1.4473952323435715,-1.3166541971316723,-0.5763021136764417,0.1423287050748219,3.0759067322426135
1.99,0.7707757851720863,1.4940039254647326,-0.06896858928638244,-0.12556948344571947,-1.4477364599002096,-1.317849515219297,-0.5776949759567357,0.14367024019210534,3.076076324381541
2.0,0.7687809032974191,1.4939090503925603,-0.0699138612554592,-0.1265606609854313,-1.4480794065896636,-1.3190508554188813,-0.5790948555930651,0.1450185340749073,3.0762467709397727
2.01,0.7667760214227517,1.4938136997279563,-0.07086387171046389,-0.12755680712780737,-1.4484240724119335,-1.3202582177304256,-0.5805017525854301,0.14637358672322795,3.076418071917308
2.02,0.7647611395480844,1.4937178734709204,-0.07181862065139634,-0.12855792187284754,-1.4487704573670193,-1.32147160215393,-0.5819156669338307,0.14773539813706704,3.076590227314147
2.03,0.762736257673417,1.4936215716214531,-0.07277810807825666,-0.1295640052205519,-1.4491185614549211,-1.322691008689394,-0.5833365986382667,0.1491039683164247,3.0767632371302898
2.04,0.7607013757987497,1.493524794179554,-0.07374233399104474,-0.13057505717092033,-1.4494683846756384,-1.3239164373368177,-0.5847645476987382,0.15047929726130083,3.0769371013657363
2.05,0.7586564939240824,1.4934275411452231,-0.07471129838976065,-0.13159107772395293,-1.4498199270291718,-1.3251478880962013,-0.5861995141152452,0.15186138497169546,3.0771118200204866
2.06,0.756601612049415,1.4933298125184606,-0.07568500127440445,-0.13261206687964974,-1.4501731885155213,-1.3263853609675447,-0.5876414978877877,0.15325023144760871,3.07728739309454
2.07,0.7545367301747476,1.4932316082992665,-0.07666344264497599,-0.1336380246380106,-1.4505281691346865,-1.3276288559508478,-0.5890904990163657,0.15464583668904042,3.077463820587898
2.08,0.7524618483000802,1.4931329284876405,-0.0776466225014754,-0.1346689509990357,-1.4508848688866676,-1.328878373046111,-0.5905465175009792,0.15604820069599068,3.077641102500559
2.09,0.750376966425413,1.493033773083583,-0.07863454084390262,-0.1357048459627249,-1.4512432877714645,-1.3301339122533338,-0.5920095533416283,0.15745732346845948,3.0778192388325243
2.1,0.7482820845507455,1.4929341420870936,-0.07962719767225765,-0.13674570952907822,-1.4516034257890773,-1.3313954735725164,-0.5934796065383128,0.15887320500644675,3.077998229583793
2.11,0.7461772026760781,1.4928340354981726,-0.08062459298654048,-0.13779154169809568,-1.451965282939506,-1.3326630570036588,-0.5949566770910327,0.16029584530995256,3.0781780747543652
2.12,0.7440623208014108,1.49273345331682,-0.08162672678675117,-0.13884234246977734,-1.4523288592227506,-1.3339366625467612,-0.5964407649997883,0.16172524437897692,3.078358774344241
2.13,0.7419374389267435,1.4926323955430356,-0.08263359907288961,-0.13989811184412304,-1.452694154638811,-1.3352162902018232,-0.5979318702645792,0.1631614022135197,3.078540328353421
2.14,0.739802557052076,1.4925308621768194,-0.08364520984495594,-0.14095884982113296,-1.4530611691876874,-1.3365019399688451,-0.5994299928854057,0.16460431881358115,3.078722736781905
2.15,0.7376576751774085,1.4924288532181718,-0.08466155910295005,-0.14202455640080702,-1.4534299028693796,-1.3377936118478269,-0.6009351328622676,0.166053994179161,3.0789059996296912
2.16,0.7355027933027412,1.4923263686670922,-0.085682646846872,-0.14309523158314522,-1.4538003556838877,-1.3390913058387683,-0.6024472901951652,0.16751042831025947,3.0790901168967824
2.17,0.7333379114280738,1.492223408523581,-0.08670847307672175,-0.14417087536814752,-1.4541725276312116,-1.3403950219416698,-0.6039664648840981,0.16897362120687637,3.079275088583177
2.18,0.7311630295534064,1.492119972787638,-0.08773903779249934,-0.14525148775581403,-1.4545464187113515,-1.3417047601565308,-0.6054926569290666,0.17044357286901185,3.0794609146888754
2.19,0.7289781476787389,1.4920160614592637,-0.08877434099420471,-0.14633706874614463,-1.4549220289243072,-1.343020520483352,-0.6070258663300705,0.17192028329666584,3.0796475952138773
2.2,0.7267832658040716,1.4919116745384573,-0.08981438268183795,-0.1474276183391394,-1.4552993582700788,-1.3443423029221326,-0.6085660930871101,0.17340375248983836,3.079835130158183
2.21,0.7245785498783031,1.4918048866015274,-0.09085965147007856,-0.14852297080309107,-1.45567844406607,-1.3456696910240995,-0.6101134074509864,0.1748941545203614,3.0800235380687653
2.22,0.7223639436470118,1.4916963386510675,-0.09190998515508583,-0.14962318181525083,-1.4560592740603302,-1.3470028240459222,-0.6116677867365403,0.1763914321109675,3.080212812856332
2.23,0.7201393374157207,1.4915873005550058,-0.09296506159602935,-0.15072836080319152,-1.4564418236830678,-1.3483419767971352,-0.6132291847835496,0.17789547062172922,3.0804029423095485
2.24,0.7179047311844293,1.4914777723133419,-0.09402488079290927,-0.15183850776691338,-1.4568260929342838,-1.349687149277738,-0.6147976015920148,0.17940627005264675,3.080593926428416
2.25,0.7156601249531381,1.4913677539260761,-0.09508944274572548,-0.15295362270641621,-1.4572120818139773,-1.3510383414877314,-0.6163730371619354,0.18092383040371995,3.0807857652129345
2.26,0.7134055187218469,1.491257245393208,-0.09615874745447806,-0.15407370562170014,-1.4575997903221487,-1.3523955534271148,-0.6179554914933116,0.18244815167494885,3.080978458663104
2.27,0.7111409124905557,1.4911462467147378,-0.09723279491916689,-0.15519875651276502,-1.4579892184587981,-1.3537587850958885,-0.6195449645861436,0.1839792338663334,3.0811720067789237
2.2800000000000002,0.708867706786263,1.4910348265368807,-0.0983109209040184,-0.15632807960119002,-1.4583801253853144,-1.355127193414699,-0.6211404734439395,0.1855161300927523,3.0813662898621623
2.29,0.7066005852760203,1.490923704573119,-0.09938616130412511,-0.15745438007674628,-1.458769986056495,-1.3564919392133354,-0.6227317119510669,0.1870489128441529,3.081560052950234
2.3,0.7043434637657774,1.4908130727549593,-0.10045665894829559,-0.1585757125765216,-1.459158127099198,-1.357850665282582,-0.6243159316967387,0.1885749346753979,3.081752961372655
2.31,0.7020963422555347,1.4907029310824018,-0.10152241383652967,-0.1596920771005158,-1.4595445485134233,-1.359203371622438,-0.6258931326809548,0.19009419558648713,3.081945015129426
2.32,0.699859217525074,1.4905931531894083,-0.10258346912684235,-0.16080346793072087,-1.4599292757396567,-1.3605500455261792,-0.6274633331069848,0.19160672276600232,3.082136210511992
2.33,0.6976320921369283,1.4904834695401696,-0.10363991255376881,-0.16190986815856734,-1.4603123615111988,-1.361890654159704,-0.6290265652408478,0.1931125679218142,3.082326538789453
2.34,0.6954149667818705,1.4903738762512972,-0.10469174508182633,-0.1630112772137502,-1.4606938064816957,-1.3632251966526248,-0.6305828290925479,0.19461173136319898,3.0825159997791243
2.35,0.6932078414597891,1.4902643787241345,-0.10573896492939472,-0.16410769540950643,-1.461073609586089,-1.364553673631785,-0.6321321239798463,0.1961042120198182,3.082704593651507
2.36,0.6910107161705716,1.4901549823362537,-0.10678157032268665,-0.16519912305769546,-1.4614517697640004,-1.3658760857212657,-0.6336744492235056,0.19759000882603983,3.0828923205763563
2.37,0.6888235909141045,1.4900456924414875,-0.10781955949575739,-0.16628556046879872,-1.4618282859597418,-1.367192433542395,-0.6352098041472909,0.19906912072094007,3.0830791807226756
2.38,0.6866464656902744,1.489936514369866,-0.1088529306905004,-0.16736700795191917,-1.4622031571223095,-1.3685027177137368,-0.6367381880779703,0.2005415466483087,3.0832651742587185
2.39,0.6844793404989677,1.4898274534276759,-0.10988168215665617,-0.1684434658147831,-1.4625763822053912,-1.369806938851104,-0.6382596003453163,0.2020072855566477,3.083450301351987
2.4,0.6823222153400699,1.4897185148973797,-0.11090581215181228,-0.16951493436373477,-1.4629479601673667,-1.3711050975675443,-0.6397740402821068,0.20346633639917444,3.083634562169234
2.41,0.6801750902134658,1.4896097040376723,-0.11192531894140156,-0.1705814139037427,-1.463317889971302,-1.3723971944733453,-0.6412815072241262,0.20491869813382024,3.0838179568764597
2.42,0.67803796511904,1.4895010260834312,-0.11294020079871281,-0.1716429047383916,-1.463686170584963,-1.3736832301760318,-0.6427820005101652,0.20636436972323535,3.0840004856389136
2.43,0.6759108400566762,1.4893924862457197,-0.11395045600488629,-0.17269940716988819,-1.4640528009808085,-1.3749632052803697,-0.6442755194820236,0.2078033501347889,3.084182148621094
2.44,0.6737937150262598,1.4892840897118056,-0.11495608284892,-0.1737509214990589,-1.4644177801359914,-1.3762371203883585,-0.6457620634845089,0.2092356383405689,3.084362945986748
2.45,0.6716865900276714,1.489175841645114,-0.11595707962766966,-0.1747974480253469,-1.4647811070323682,-1.3775049760992326,-0.6472416318654401,0.2106612333173863,3.084542877898868
2.46,0.669589465060795,1.4890677471852385,-0.11695344464585489,-0.175838987046816,-1.4651427806564898,-1.3787667730094642,-0.6487142239756456,0.21208013404677573,3.084721944519699
2.4699999999999998,0.6675023401255129,1.4889598114479448,-0.1179451762160566,-0.17687553886014662,-1.4655027999996086,-1.380022511712756,-0.6501798391689673,0.2134923395149957,3.084900146010728
2.48,0.6654252152217066,1.4888520395251348,-0.1189322726587223,-0.1779071037606368,-1.4658611640576842,-1.381272192800047,-0.6516384768022583,0.21489784871303064,3.0850774825326934
2.49,0.6633580903492575,1.4887444364848719,-0.11991473230217142,-0.17893368204220295,-1.4662178718313719,-1.3825158168595078,-0.6530901362353858,0.21629666063659503,3.0852539542455784
2.5,0.6613009655080457,1.4886370073713486,-0.12089255348258998,-0.17995527399737554,-1.4665729223260415,-1.3837533844765373,-0.6545348168312326,0.21768877428612843,3.085429561308615
2.51,0.6592538406979531,1.488529757204894,-0.12186573454404126,-0.1809718799173048,-1.4669263145517615,-1.3849848962337683,-0.6559725179556954,0.21907418866680395,3.08560430388028
2.52,0.6572167159188571,1.488422690981956,-0.12283427383846135,-0.18198350009175313,-1.4672780475233118,-1.3862103527110632,-0.6574032389776889,0.22045290278852647,3.0857781821182972
2.5300000000000002,0.6551895911706396,1.4883158136751007,-0.12379816972566715,-0.18299013480910142,-1.4676281202601853,-1.3874297544855114,-0.6588269792691441,0.22182491566593354,3.085951196179637
2.54,0.6531724664531784,1.4882091302330025,-0.1247574205733546,-0.18399178435634456,-1.4679765317865803,-1.3886431021314305,-0.6602437382050106,0.22319022631839713,3.086123346220515
2.55,0.6511653398234392,1.48810236247024,-0.12571212318542901,-0.18498843542984678,-1.4683233006924583,-1.389850372259219,-0.6616535543140255,0.22454889064470174,3.0862946311886867
2.56,0.6491682131824237,1.4879951610294029,-0.12666239696881787,-0.18598006907515097,-1.4686684511604713,-1.3910515325324138,-0.663056472876431,0.22590097597427894,3.086465049066467
2.57,0.6471810866262628,1.4878875390075468,-0.12760823743675376,-0.1869666859488548,-1.4690119816722103,-1.3922465841847882,-0.6644524921107955,0.22724647966306533,3.086634600035756
2.58,0.6452039601547837,1.487779510641353,-0.12854963975737643,-0.1879482868158111,-1.469353890617301,-1.3934355286161912,-0.6658416101522051,0.22858539890700857,3.0868032842986013
2.59,0.6432368337678094,1.4876710901000898,-0.12948659912171268,-0.18892487243725298,-1.4696941763929947,-1.3946183672198462,-0.6672238251445809,0.22991773091533774,3.0869711020560935
2.6,0.6412797074651593,1.4875622914855455,-0.13041911074368695,-0.18989644357079039,-1.4700328374041765,-1.3957951013823444,-0.668599135240685,0.23124347291057457,3.0871380535083666
2.61,0.639332581246649,1.4874531288319943,-0.13134716986014627,-0.19086300097040954,-1.4703698720633698,-1.3969657324836406,-0.6699675386021287,0.23256262212854284,3.087304138854596
2.62,0.6373954551120911,1.4873436161061218,-0.13227077173087398,-0.1918245453864662,-1.470705278790743,-1.3981302618970475,-0.6713290333993773,0.23387517581838035,3.0874693582929984
2.63,0.6354683290612941,1.4872337672069893,-0.13318991163860838,-0.1927810775656862,-1.4710390560141149,-1.3992886909892304,-0.6726836178117598,0.23518113124254736,3.087633712020832
2.64,0.6335512030940629,1.487123595965972,-0.13410458488906363,-0.1937325982511613,-1.471371202168962,-1.4004410211202023,-0.6740312900274736,0.236480485676839,3.087797200234394
2.65,0.6316440772101994,1.487013116146711,-0.13501478681094126,-0.19467910818234535,-1.4717017156984218,-1.4015872536433183,-0.6753720482435923,0.23777323641039394,3.0879598231290206
2.66,0.6297469514095009,1.4869023414450577,-0.13592051275595685,-0.195620608095054,-1.4720305950533024,-1.4027273899052712,-0.6767058906660728,0.23905938074570554,3.088121580899087
2.67,0.627859825691762,1.486791285489014,-0.1368217580988511,-0.1965570987214591,-1.4723578386920855,-1.4038614312460853,-0.6780328155097617,0.24033891599863355,3.0882824737380052
2.68,0.6259827000567735,1.4866799618386946,-0.13771851823741033,-0.19748858079008746,-1.4726834450809336,-1.4049893789991115,-0.679352820998403,0.24161183949841147,3.0884425018382244
2.69,0.6241155745043221,1.4865683839862651,-0.13861078859248366,-0.19841505502581747,-1.473007412693696,-1.4061112344910225,-0.6806659053646438,0.24287814858766055,3.08860166539123
2.7,0.6222584490341925,1.4864565653558834,-0.1394985646080018,-0.19933652214987685,-1.4733297400119147,-1.4072269990418067,-0.6819720668500423,0.24413784062239685,3.088759964587542
2.71,0.6204113236461644,1.4863445193036604,-0.14038184175099566,-0.20025298287983895,-1.4736504255248302,-1.4083366739647643,-0.6832713037050746,0.24539091297204418,3.088917399616715
2.7199999999999998,0.6185741983400144,1.4862322591175978,-0.1412606155116114,-0.20116443792962002,-1.4739694677293875,-1.409440260566501,-0.6845636141891405,0.24663736301944317,3.0890739706673394
2.73,0.6167470731155162,1.4861197980175387,-0.14213488140313046,-0.20207088800947726,-1.4742868651302423,-1.410537760146923,-0.6858489965705721,0.2478771881608619,3.0892296779270354
2.74,0.6149299479724402,1.4860071491551157,-0.14300463496198867,-0.202972333826005,-1.4746026162397667,-1.4116291739992328,-0.6871274491266391,0.2491103858060062,3.0893845215824585
2.75,0.6131228229105521,1.4858943256136907,-0.14386987174778998,-0.20386877608213227,-1.4749167195780546,-1.4127145034099229,-0.6883989701435569,0.2503369533780302,3.0895385018192933
2.76,0.6113256979296149,1.485781340408316,-0.1447305873433291,-0.20476021547712064,-1.47522917367293,-1.41379374965877,-0.6896635579164927,0.2515568883135466,3.089691618822257
2.77,0.6095385730293892,1.4856682064856699,-0.14558677735460446,-0.20564665270655924,-1.4755399770599484,-1.4148669140188321,-0.6909212107495724,0.2527701880626374,3.0898438727750963
2.7800000000000002,0.6077614482096303,1.485554936724009,-0.14643843741084117,-0.2065280884623646,-1.4758491282824087,-1.4159339977564416,-0.6921719269558881,0.2539768500888626,3.0899952638605868
2.79,0.605994323470092,1.4854415439331188,-0.14728556316450314,-0.20740452343277638,-1.4761566258913534,-1.4169950021312003,-0.6934157048575041,0.2551768718692726,3.0901457922605324
2.8,0.6042371941153745,1.4853280238826656,-0.14812815724969342,-0.2082759604970558,-1.476462471795752,-1.4180499300237277,-0.6946525486657957,0.25637025772833644,3.0902954583173905
2.81,0.6024900483445329,1.4852134816464817,-0.14896649322372124,-0.20914238598947346,-1.476766793437438,-1.4190987173695708,-0.6958825984960204,0.25755720535694854,3.0904442502816103
2.82,0.6007529027805246,1.485097446104462,-0.1498007059795572,-0.21000378024380065,-1.477069653190503,-1.4201413159604628,-0.6971059116797211,0.25873780310036876,3.0905921600043094
2.83,0.5990257574237806,1.4849799531234975,-0.15063078424747633,-0.21086014446229515,-1.4773710463819976,-1.4211777288967666,-0.6983224831453329,0.2599120435494203,3.090739187996104
2.84,0.5973086122747062,1.4848610383919914,-0.15145671681384631,-0.21171147984124325,-1.47767096836223,-1.4222079592634302,-0.6995323078465441,0.26107991933181196,3.0908853347650713
2.85,0.5956014673336808,1.48474073741956,-0.15227849252122272,-0.21255778757095053,-1.4779694145048068,-1.4232320101299631,-0.7007353807623408,0.26224142311220144,3.091030600816746
2.86,0.5939043226010595,1.4846190855367256,-0.15309610026844422,-0.21339906883573026,-1.478266380206671,-1.424249884550405,-0.7019316968970479,0.26339654759225783,3.0911749866541145
2.87,0.5922171780771716,1.4844961178946088,-0.1539095290107304,-0.2142353248138937,-1.4785618608881435,-1.425261585563304,-0.7031212512803746,0.26454528551072537,3.0913184927776114
2.88,0.5905400337623213,1.4843718694646126,-0.15471876775977955,-0.21506655667773963,-1.478855851992963,-1.4262671161916864,-0.704304038967457,0.265687629643488,3.0914611196851145
2.89,0.5888728896567882,1.4842463750381145,-0.1555238055838668,-0.21589276559354362,-1.4791483489883275,-1.427266479443031,-0.7054800550389033,0.26682357280363456,3.091602867871941
2.9,0.5872157457608266,1.4841196692261467,-0.1563246316079443,-0.21671395272154745,-1.4794393473649345,-1.428259678309241,-0.7066492946008384,0.26795310784152326,3.091743737830842
2.91,0.5855686020746658,1.483991786459074,-0.1571212350137413,-0.21753011921594825,-1.4797288426370245,-1.4292467157666162,-0.7078117527849488,0.26907622764484845,3.0918837300519995
2.92,0.5839314585985115,1.4838627609862733,-0.15791360503986573,-0.21834126622488734,-1.480016830342421,-1.4302275947758254,-0.708967424748528,0.2701929251387068,3.0920228450230196
2.93,0.5823043153325429,1.483732626875811,-0.15870173098190588,-0.21914739489044024,-1.480303306042574,-1.431202318281879,-0.7101163056745233,0.2713031932856646,3.09216108322893
2.94,0.5806871722769168,1.4836014180141115,-0.15948560219253316,-0.21994850634860444,-1.4805882653226026,-1.4321708892140985,-0.7112583907715808,0.2724070250858252,3.092298445152174
2.95,0.5790800294317641,1.4834691681056293,-0.1602652080816066,-0.2207446017292892,-1.4808717037913373,-1.43313331048609,-0.7123936752740929,0.273504413576897,3.0924349312726065
2.96,0.5774828867971916,1.4833359106725172,-0.16104053811627617,-0.22153568215630395,-1.4811536170813635,-1.4340895849957147,-0.7135221544422448,0.27459535183426215,3.0925705420674885
2.9699999999999998,0.5758957443732823,1.4832016790542917,-0.1618115818210879,-0.22232174874734714,-1.4814340008490663,-1.43503971562506,-0.7146438235620615,0.2756798329710454,3.092705278011483
2.98,0.5743186021600949,1.483066506407495,-0.1625783287780902,-0.22310280261399493,-1.481712850774672,-1.4359837052404099,-0.7157586779454557,0.276757850138184,3.0928391395766512
2.99,0.5727514601576635,1.4829304257053586,-0.1633407686269398,-0.22387884486168977,-1.4819901625622944,-1.4369215566922158,-0.716866712930276,0.2778293965244969,3.092972127232444
3.0,0.5711943183659993,1.4827934697374596,-0.1640988910650093,-0.2246498765897286,-1.4822659319399776,-1.4378532728150675,-0.7179679238803539,0.2788944653567557,3.0931042414457015
3.01,0.5696471767850884,1.4826556711093795,-0.1648526858474939,-0.22541589889125205,-1.4825401546597416,-1.4387788564276636,-0.7190623061855534,0.2799530498997555,3.093235482680646
3.02,0.5681100354148945,1.4825170622423602,-0.16560214278752083,-0.22617691285323197,-1.4828128264976275,-1.43969831033278,-0.7201498552618188,0.28100514345638505,3.0933658513988767
3.03,0.5665828942553562,1.482377675372954,-0.16634725175625809,-0.2269329195564607,-1.4830839432537415,-1.4406116373172424,-0.7212305665512247,0.28205073936770025,3.093495348059366
3.04,0.56506575330639,1.4822375425526793,-0.1670880026830227,-0.22768392007553792,-1.483353500752301,-1.441518840151894,-0.7223044355220236,0.2830898310129937,3.093623973118453
3.05,0.5635586125678878,1.4820966956476642,-0.16782438555539303,-0.22842991547886063,-1.4836214948416808,-1.4424199215915656,-0.7233714576686973,0.28412241180986925,3.09375172702984
3.06,0.5620614720397189,1.481955166338302,-0.16855639041931703,-0.22917090682860972,-1.4838879213944574,-1.4433148843750456,-0.7244316285120048,0.28514847521431297,3.093878610244587
3.07,0.5605743317217287,1.4818129861188907,-0.1692840073792249,-0.22990689518073923,-1.4841527763074567,-1.4442037312250502,-0.7254849435990341,0.2861680147207674,3.0940046232111063
3.08,0.55909719161374,1.4816701862972823,-0.17000722659813972,-0.23063788158496354,-1.4844160555017991,-1.44508646484819,-0.7265313985032505,0.28718102386220384,3.0941297663751577
3.09,0.5576300517155526,1.481526797994523,-0.17072603829779032,-0.2313638670847458,-1.4846777549229473,-1.4459630879349412,-0.7275709888245484,0.28818749621019685,3.094254040179843
3.1,0.5561729081401698,1.4813828716924444,-0.17144042847565544,-0.2320848552759316,-1.4849378687315005,-1.4468336070765333,-0.7286037101312167,0.28918742391592467,3.094377445636461
3.11,0.5547257294428574,1.4812369186482226,-0.17215088981184712,-0.23280080727925687,-1.4851966093481765,-1.447697894504604,-0.729629795533627,0.29018113416424185,3.09449995830463
3.12,0.553288551150497,1.4810876656953516,-0.17285781321329402,-0.2335116595355839,-1.4854541458593142,-1.4485558061872532,-0.7306494008911344,0.2911688654180513,3.0946215529131864
3.13,0.5518613732692755,1.4809351964528674,-0.17356117205813448,-0.23421741499806872,-1.4857104669322705,-1.4494073499475895,-0.731662514351076,0.2921506004424668,3.0947422308485524
3.14,0.5504441958052253,1.4807795941096324,-0.1742609398615177,-0.2349180766047361,-1.485965561292722,-1.4502525335685492,-0.7326691241218491,0.29312632209134787,3.09486199349003
3.15,0.5490370187642246,1.4806209414236204,-0.17495709027583117,-0.23561364727845413,-1.4862194177247634,-1.4510913647928312,-0.733669218473013,0.2940960133074464,3.0949808422097864
3.16,0.547639842151998,1.4804593207211372,-0.17564959709094874,-0.23630412992690633,-1.4864720250710122,-1.4519238513228223,-0.7346627857353986,0.29505965712256743,3.095098778372843
3.17,0.5462526659741174,1.48029481389598,-0.17633843423449802,-0.23698952744256171,-1.4867233722327216,-1.452750000820519,-0.7356498143012267,0.2960172366577417,3.0952158033370605
3.18,0.5448754902360017,1.4801275024085325,-0.17702357577214795,-0.2376698427026426,-1.4869734481699046,-1.453569820907442,-0.7366302926242371,0.29696873512341215,3.0953319184531227
3.19,0.5435083149429173,1.4799574672848006,-0.17770499590791622,-0.2383450785690905,-1.4872222419014645,-1.4543833191645463,-0.7376042092198244,0.2979141358196321,3.0954471250645232
3.2,0.5421511400999789,1.4797847891153861,-0.17838266898449506,-0.2390152378885295,-1.4874697425053325,-1.455190503132125,-0.7385715526651832,0.29885342213627664,3.095561424507546
3.21,0.5408039657121497,1.4796095480544036,-0.1790565694835965,-0.2396803234922276,-1.4877159391186157,-1.4559913803097062,-0.7395323115994608,0.29978657755326554,3.0956748181112492
3.22,0.5394667917842417,1.479431823818336,-0.17972667202631598,-0.24034033819605638,-1.487960820937752,-1.456785958155948,-0.7404864747239202,0.3007135856407988,3.0957873071974435
3.23,0.5381396183209163,1.4792516956848336,-0.1803929513735147,-0.24099528480044807,-1.4882043772186717,-1.4575742440885233,-0.7414340308021086,0.3016344300596036,3.0958988930806757
3.24,0.5368224453266841,1.4790692424914564,-0.18105538242622,-0.2416451660903512,-1.48844659727697,-1.4583562454840044,-0.7423749686600366,0.3025490945611938,3.0960095770682043
3.25,0.5355152728059066,1.4788845426343613,-0.1817139402260427,-0.2422899848351835,-1.4886874704880824,-1.4591319696777378,-0.7433092771863632,0.3034575629881394,3.0961193604599813
3.26,0.5342181007627947,1.478697674066932,-0.1823685999556136,-0.24292974378878396,-1.4889269862874719,-1.4599014239637167,-0.7442369453325901,0.30435981927434963,3.096228244548625
3.27,0.5329309292014109,1.4785087142983566,-0.18301933693903538,-0.24356444568936167,-1.4891651341708214,-1.4606646155944476,-0.7451579621132624,0.30525584744536466,3.0963362306194013
3.2800000000000002,0.5316537581256686,1.478317740392152,-0.183666126642353,-0.24419409325944394,-1.489401903694233,-1.4614215517808118,-0.7460723166061779,0.3061456316186603,3.096443319950195
3.29,0.5303865875393325,1.478124828964635,-0.1843089446740394,-0.24481868920582173,-1.489637284474436,-1.4621722396919221,-0.7469799979526036,0.30702915600396236,3.0965495138114876
3.3,0.5291294174460197,1.4779300561833413,-0.18494776678549935,-0.24543823621949393,-1.4898712661890003,-1.4629166864549743,-0.747880995357499,0.30790640490357224,3.0966548134663285
3.31,0.5278822478491991,1.4777334977653973,-0.1855825688715873,-0.2460527369756093,-1.4901038385765577,-1.463654899155095,-0.748775298089747,0.3087773627127026,3.0967592201703096
3.32,0.5266450787521929,1.4775352289758368,-0.18621332697114268,-0.2466621941334068,-1.4903349914370292,-1.464386884835184,-0.7496628954823915,0.30964201391982327,3.0968627351715368
3.33,0.5254179101581761,1.477335324625874,-0.18684001726754018,-0.2472666103361545,-1.4905647146318597,-1.4651126504957515,-0.7505437769328825,0.310500343107017,3.096965359710601
3.34,0.5242007420701769,1.4771338590711265,-0.18746261608925485,-0.2478659882110864,-1.4907929980842582,-1.4658322030947526,-0.7514179319033274,0.3113523349503462,3.097067095020549
3.35,0.5229935744910778,1.4769309062097906,-0.18808109991044275,-0.24846033036933798,-1.4910198317794452,-1.4665455495474151,-0.7522853499207492,0.3121979742202277,3.097167942326854
3.36,0.5217964074236152,1.4767265394807716,-0.1886954453515361,-0.24904963940587946,-1.4912452057649062,-1.467252696726066,-0.7531460205773511,0.313037245781818,3.0972679028473826
3.37,0.5206092408703806,1.4765208318617697,-0.18930562917985244,-0.2496339178994484,-1.4914691101506508,-1.4679536514599496,-0.7539999335307878,0.3138701345954079,3.097366977792365
3.38,0.5194320748338201,1.4763138558673203,-0.18991162831021835,-0.25021316841248,-1.491691535109478,-1.4686484205350467,-0.7548470785044423,0.3146966257168255,3.097465168364361
3.39,0.5182649093162356,1.4761056835467918,-0.19051341980560643,-0.25078739349103596,-1.4919124708772478,-1.4693370106938843,-0.7556874452877101,0.31551670429784884,3.097562475758227
3.4,0.5171077443197845,1.4758963864823407,-0.19111098087778622,-0.25135659566473234,-1.4921319077531583,-1.4700194286353458,-0.7565210237362878,0.3163303555866268,3.097658901161083
3.41,0.5159605798464807,1.4756860357868264,-0.19170428888798768,-0.2519207774466654,-1.4923498361000282,-1.4706956810144751,-0.757347803772469,0.3171375649281087,3.097754445752278
3.42,0.514823415898195,1.4754747021016847,-0.1922933213475781,-0.25247994133333623,-1.4925662463445843,-1.4713657744422763,-0.7581677753854447,0.31793831776448184,3.097849110703352
3.43,0.5136962524766548,1.4752624555947627,-0.19287805591875135,-0.253034089804574,-1.492781128977756,-1.4720297154855122,-0.7589809286316106,0.3187325996356182,3.097942897178004
3.44,0.5125790895834457,1.4750493659581132,-0.193458470415229,-0.25358322532345773,-1.4929944745549724,-1.472687510666497,-0.7597872536348784,0.3195203961795274,3.0980358063320534
3.45,0.5114719272200106,1.4748355024057547,-0.19403454280297416,-0.2541273503362371,-1.4932062736964675,-1.473339166462886,-0.7605867405869937,0.32030169313281914,3.0981278393134013
3.46,0.5103747653876515,1.4746209336713938,-0.19460625120091574,-0.25466646727225156,-1.4934165170875884,-1.4739846893074628,-0.7613793797478576,0.32107647633117165,3.0982189972619953
3.4699999999999998,0.5092876040875287,1.4744057280061096,-0.19517357388168538,-0.255200578543848,-1.4936251954791075,-1.474624085587922,-0.7621651614458554,0.32184473170980854,3.098309281309791
3.48,0.5082104522604798,1.4741896336854872,-0.19573652873130365,-0.2557297522528552,-1.4938323650487335,-1.475257390470735,-0.7629441751009917,0.32260655793658904,3.098398695394662
3.49,0.5071428741024249,1.4739698714638276,-0.1962960108104951,-0.2562543729589772,-1.4940385511649223,-1.475884817425656,-0.7637173128493493,0.3233629899387433,3.0984872600181954
3.5,0.5060842334618663,1.4737461153538471,-0.19685240608610455,-0.2567747596961849,-1.4942439069691957,-1.4765067325578909,-0.7644850728288007,0.3241145272742615,3.098575026172103
3.51,0.5050339569040397,1.4735183648756218,-0.19740598289187572,-0.2572911910724386,-1.494448525158499,-1.4771234781035627,-0.7652478482575574,0.3248615472709017,3.0986620425768683
3.52,0.5039915288007273,1.473286619601476,-0.1979569825104296,-0.25780391760981136,-1.4946524890846322,-1.4777353617989866,-0.7660059927137457,0.3256043892179866,3.098748353041621
3.5300000000000002,0.5029564839466972,1.4730508791487622,-0.19850562262862087,-0.25831316533188053,-1.4948558739479791,-1.4783426612872625,-0.7667598251986888,0.3263433592251411,3.0988339970914525
3.54,0.5019284013208264,1.4728111431738442,-0.19905210025718384,-0.2588191387949585,-1.4950587478061563,-1.4789456278417148,-0.7675096344152074,0.32707873432775386,3.0989190104974793
3.55,0.5009068987843663,1.4725674113670468,-0.1995965942117995,-0.2593220236639999,-1.4952611724311442,-1.479544489530034,-0.7682556824032623,0.32781076597573994,3.0990034257272856
3.56,0.4998916285516485,1.4723196834483951,-0.20013926723266845,-0.25982198891321,-1.495463204041529,-1.4801394539174206,-0.7689982076458911,0.328539683013994,3.0990872723297396
3.57,0.4988822733014825,1.4720679591639967,-0.20068026780424636,-0.2603191887153622,-1.4956648939311599,-1.4807307103873553,-0.7697374277357854,0.32926569424123087,3.099170577265375
3.58,0.49787854282312183,1.4718122382829577,-0.20121973172481133,-0.26081376407139145,-1.4958662890113776,-1.4813184321433353,-0.7704735416752857,0.32998899061705433,3.0992533651913563
3.59,0.49688017111070193,1.4715525205947375,-0.20175778346615414,-0.2613058442220906,-1.496067432280738,-1.4819027779429548,-0.7712067318688366,0.3307097471739079,3.0993356587083403
3.6,0.49588691383588573,1.4712888059068712,-0.2022945373562757,-0.26179554787605064,-1.4962683632335885,-1.4824838936062696,-0.7719371658560854,0.3314281246801478,3.0994174785752047
3.61,0.49489854614101136,1.4710210940430013,-0.2028300986120979,-0.2622829842818813,-1.49646911821683,-1.4830619133328795,-0.7726649978251975,0.33214427109221184,3.099498843896546
3.62,0.49391486070508905,1.4707493848411666,-0.20336456424448807,-0.26276825416786453,-1.4966697307425656,-1.4836369608561724,-0.7733903699390673,0.33285832282724154,3.099579772287
3.63,0.49293566604309225,1.4704736781523118,-0.20389802385410943,-0.2632514505682597,-1.4968702317630358,-1.4842091504583348,-0.7741134135015477,0.3335704058821881,3.099660280015733
3.64,0.4919607850055353,1.4701939738389846,-0.20443056033354334,-0.2637326595522976,-1.49707064991317,-1.4847785878658284,-0.7748342499863358,0.3342806368211224,3.0997403821339238
3.65,0.490990053450672,1.4699102717741896,-0.2049622504886317,-0.2642119608693039,-1.4972710117252361,-1.485345371041844,-0.7755529919474844,0.33498912364895406,3.0998200925875765
3.66,0.49002331906601604,1.469622571840381,-0.20549316558994168,-0.26468942852127414,-1.4974713418193455,-1.485909590889639,-0.7762697438275192,0.3356959665868923,3.099899424317646
3.67,0.48906044031948376,1.4693308739285729,-0.206023371863573,-0.26516513127247,-1.4976716630730054,-1.4864713318785125,-0.7769846026766675,0.3364012587626112,3.0999783893491535
3.68,0.4881012855234284,1.4690351779375495,-0.206552930929136,-0.26563913310416565,-1.4978719967724217,-1.4870306726024074,-0.7776976587946736,0.3371050868261287,3.100056998870705
3.69,0.4871457319973103,1.4687354837731648,-0.2070819001915732,-0.2661114936214714,-1.498072362747854,-1.4875876862796424,-0.778408996304977,0.33780753150078147,3.100135263305637
3.7,0.48619366531680597,1.468431791347718,-0.20761033319253042,-0.26658226841816035,-1.4982727794949984,-1.488142441201059,-0.7791186936696151,0.33850866807731955,3.1002131923758114
3.71,0.4852449786388831,1.468124100579396,-0.20813827992618048,-0.2670515094045856,-1.4984732642840892,-1.488695001132828,-0.7798268241520351,0.33920856685801476,3.1002907951589598
3.7199999999999998,0.48429957209382546,1.4678124113917743,-0.2086657871237169,-0.26751926510307,-1.4986738332581786,-1.4892454256792995,-0.7805334562339951,0.33990729355671356,3.100368080140338
3.73,0.4833594910933723,1.467497446054539,-0.20919170039025126,-0.26798452221374464,-1.498874045122075,-1.4897925261114335,-0.781237052105401,0.340603324647165,3.1004448805803317
3.74,0.48242926070436465,1.4671808211774255,-0.20971346072854707,-0.26844503850465634,-1.499072920721436,-1.4903336734346626,-0.7819342061519208,0.34129328501305717,3.100520827783804
3.75,0.4815090317443024,1.4668627255969793,-0.21023094590287011,-0.2689007355877372,-1.4992704066976243,-1.4908687860214656,-0.782624779540551,0.34197702889725085,3.1005959107816476
3.76,0.48059880422470824,1.4665432973721684,-0.21074411811231308,-0.26935160971737726,-1.4994664818482164,-1.491397869997945,-0.7833087463549645,0.3426545222605506,3.100670130922476
3.77,0.47969857815652317,1.4662226738960893,-0.2112529397385319,-0.2697976571662876,-1.499661125073134,-1.4919209314609705,-0.7839860808041922,0.34332573122828136,3.1007434895484423
3.7800000000000002,0.47880835355010143,1.465900991884375,-0.211757373348922,-0.270238874225817,-1.4998543153764266,-1.492437976477667,-0.7846567572248011,0.34399062209314935,3.1008159879951274
3.79,0.4779281304152079,1.4655783873631498,-0.21225738169991656,-0.27067525720627916,-1.5000460318681208,-1.4929490110848815,-0.7853207500831569,0.34464916131821244,3.100887627591422
3.8,0.47705790876101334,1.4652549956565393,-0.21275292774040871,-0.2711068024372937,-1.5002362537661393,-1.4934540412886306,-0.7859780339777716,0.3453013155399629,3.100958409659405
3.81,0.47619768859609124,1.4649309513737325,-0.21324397461529404,-0.2715335062681378,-1.500424960398288,-1.4939530730635275,-0.7866285836417323,0.3459470515715176,3.1010283355142167
3.82,0.47534746992841326,1.4646063883956106,-0.21373048566913422,-0.27195536506811113,-1.5006121312043104,-1.494446112352192,-0.787272373945215,0.3465863364059181,3.1010974064639294
3.83,0.47450725276534644,1.464281439860938,-0.21421242444993796,-0.2723723752269108,-1.500797745738008,-1.4949331650646367,-0.7879093798980773,0.3472191372195356,3.101165623809412
3.84,0.4736770371136487,1.4639562381521265,-0.2146897547130608,-0.2727845331550195,-1.5009817836694277,-1.4954142370776389,-0.7885395766525328,0.34784542137558344,3.1012329888441923
3.85,0.47285682297946574,1.4636309148805768,-0.21516244042521948,-0.27319183528410407,-1.501164224787113,-1.495889334234091,-0.7891629395059048,0.34846515642773235,3.1012995028543116
3.86,0.47204661036832696,1.4633056008716019,-0.21563044576862095,-0.2735942780674257,-1.50134504900042,-1.4963584623423325,-0.7897794439034573,0.3490783101238295,3.1013651671181806
3.87,0.47124639928514267,1.4629804261489405,-0.2160937351452037,-0.2739918579802611,-1.5015242363418955,-1.4968216271754644,-0.7903890654413044,0.34968485040971786,3.1014299829064256
3.88,0.47045618973419984,1.4626555199188667,-0.2165522731809898,-0.2743845715203349,-1.5017017669697184,-1.4972788344706451,-0.7909917798693943,0.3502847454331561,3.101493951481736
3.89,0.46967598171915936,1.4623310105539011,-0.21700602473054548,-0.2747724152082622,-1.5018776211702012,-1.49773008992837,-0.7915875630945682,0.35087796354783507,3.101557074098703
3.9,0.4689057752430529,1.4620070255761335,-0.21745495488154834,-0.2751553855880019,-1.502051779360352,-1.4981753992117304,-0.7921763911836927,0.35146447331749164,3.1016193520036586
3.91,0.4681455703082791,1.4616836916401623,-0.21789902895945948,-0.2755334792273209,-1.502224222090494,-1.4986147679456596,-0.792758240366863,0.35204424352011604,3.1016807864345077
3.92,0.46739536691660144,1.4613611345156605,-0.2183382125322974,-0.2759066927182671,-1.5023949300469437,-1.4990482017161584,-0.7933330870406772,0.3526172431522507,3.10174137862056
3.93,0.4666551650691448,1.4610394790695764,-0.21877247141551254,-0.2762750226776535,-1.502563884054745,-1.4994757060695076,-0.793900907771578,0.3531834414333807,3.101801129782353
3.94,0.4659249647663934,1.4607188492479768,-0.21920177167695865,-0.27663846574755113,-1.502731065080457,-1.4998972865114621,-0.7944616792992617,0.35374280781041,3.101860041131478
3.95,0.46520476600818733,1.4603993680575449,-0.21962607964196015,-0.27699701859579157,-1.5028964542349965,-1.5003129485064313,-0.7950153785401535,0.35429531196222536,3.101918113870398
3.96,0.4644945687937213,1.4600811575467365,-0.22004536189847054,-0.27735067791647844,-1.503060032776531,-1.5007226974766419,-0.795561982590943,0.35484092380434107,3.101975349192263
3.9699999999999998,0.463794229724889,1.4597646198828746,-0.2204595754167462,-0.2776995024828047,-1.5032217621097617,-1.501126636875419,-0.7961015142891501,0.3553796385305708,3.102031763213094
3.98,0.4631028776322551,1.4594517251810224,-0.22086858830747935,-0.2780438621694632,-1.5033814804149905,-1.5015253741828787,-0.7966342011642817,0.35591154356784477,3.102087449215616
3.99,0.4624203636834253,1.4591428304791705,-0.22127237243737624,-0.27838381961236847,-1.503539156904819,-1.5019190140910523,-0.7971600782484904,0.3564366488090963,3.1021424233364456
4.0,0.46174668787839973,1.4588379357773182,-0.22167092780643682,-0.27871937481152065,-1.5036947915792476,-1.50230755659994,-0.7976791455417763,0.3569549542543255,3.1021966855755823
4.01,0.4610818502171785,1.4585370410754663,-0.22206425441466104,-0.2790505277669195,-1.5038483844382755,-1.5026910017095414,-0.798191403044139,0.35746645990353204,3.1022502359330257
4.02,0.4604258506997612,1.458240146373614,-0.222452352262049,-0.27937727847856525,-1.5039999354819034,-1.5030693494198566,-0.7986968507555787,0.3579711657567163,3.1023030744087756
4.03,0.4597786893261482,1.457947251671762,-0.22283522134860062,-0.2796996269464578,-1.5041494447101307,-1.503442599730886,-0.7991954886760955,0.3584690718138781,3.1023552010028324
4.04,0.45914036609633946,1.45765835696991,-0.22321286167431592,-0.28001757317059706,-1.504296912122958,-1.5038107526426292,-0.799687316805689,0.35896017807501734,3.1024066157151973
4.05,0.4585108810103349,1.4573734622680576,-0.2235852732391949,-0.28033111715098324,-1.5044423377203846,-1.5041738081550862,-0.8001723351443598,0.3594444845401343,3.102457318545868
4.06,0.45789023406813434,1.4570925675662056,-0.22395245604323766,-0.28064025888761623,-1.5045857215024112,-1.5045317662682574,-0.8006505436921078,0.3599219912092288,3.1025073094948463
4.07,0.45727842526973805,1.4568156728643533,-0.2243144100864441,-0.280944998380496,-1.5047270634690373,-1.5048846269821423,-0.8011219424489324,0.3603926980823009,3.1025565885621322
4.08,0.45667545461514597,1.4565427781625013,-0.22467113536881417,-0.2812453356296227,-1.5048663636202635,-1.5052323902967413,-0.8015865314148342,0.3608566051593505,3.102605155747724
4.09,0.456081322104358,1.4562738834606492,-0.225022631890348,-0.28154127063499607,-1.505003621956089,-1.5055750562120542,-0.8020443105898131,0.36131371244037763,3.1026530110516233
4.1,0.4554960277373743,1.456008988758797,-0.22536889965104542,-0.2818328033966163,-1.505138838476514,-1.505912624728081,-0.8024952799738687,0.3617640199253824,3.1027001544738293
4.11,0.4549196838374541,1.455747264039144,-0.22571013166563858,-0.2821198758500946,-1.5052721141922973,-1.5062449723050704,-0.8029394991494354,0.36220764149652296,3.1027465658792717
4.12,0.4543528484821722,1.4554827359392473,-0.2260478316980374,-0.28240219505876624,-1.5054042175377276,-1.5065713617706407,-0.8033775709580725,0.3626455635232357,3.102792121947166
4.13,0.4537950473547113,1.4552142215689732,-0.22638256556240563,-0.2826799949513562,-1.5055353976436674,-1.5068920021017749,-0.8038100214823135,0.3630783710975464,3.102836848694496
4.14,0.4532456871877886,1.4549417197068006,-0.22671460551218045,-0.28295357167416146,-1.5056657530444753,-1.5072072532943812,-0.8042372634945013,0.3635064598830006,3.1028807972713053
4.15,0.4527042421080847,1.4546652292847797,-0.22704419286899752,-0.2832231877318943,-1.5057953710790724,-1.5075174344505486,-0.8046596628744195,0.3639301805931982,3.102924013017284
4.16,0.45217024389267707,1.4543847493640003,-0.22737154249538002,-0.28348907685145064,-1.5059243295098708,-1.5078228296906668,-0.8050775453892275,0.36434984549101695,3.1029665363017753
4.17,0.4516432739463342,1.454100279114769,-0.2276968464773741,-0.283751447986665,-1.5060526978557236,-1.5081236930214008,-0.8054912022758979,0.36476573373989096,3.103008403215435
4.18,0.45112295664390667,1.4538118178004473,-0.22802027718048254,-0.28401048864163997,-1.5061805384980242,-1.5084202523753802,-0.805900894873728,0.3651780958444799,3.1030496461442003
4.19,0.45060895376564514,1.4535193647641713,-0.22834198980386355,-0.28426636764851176,-1.506307907605194,-1.5087127129877382,-0.8063068584963324,0.36558715736229835,3.103090294249044
4.2,0.45010095981501813,1.453222919417855,-0.2286621245294077,-0.2845192375046916,-1.5064348559105305,-1.50900126023718,-0.8067093056895489,0.36599312202667783,3.103130373869639
4.21,0.4495986980547476,1.4529224812330241,-0.22898080834111775,-0.2847692363515897,-1.506561429370718,-1.5092860620512585,-0.8071084289895769,0.3663961743906546,3.103169908866113
4.22,0.4491019171316492,1.4526180497331251,-0.2292981565742057,-0.28501648965942056,-1.5066876697265057,-1.509567270954379,-0.8075044032714065,0.36679648207810955,3.103208920910033
4.23,0.4486103881874665,1.4523096244870344,-0.22961427424110525,-0.28526111166941104,-1.5068136149826419,-1.509845025820915,-0.807897387759077,0.36719419771074224,3.1032474297335
4.24,0.4481239023733946,1.451997205103549,-0.2299292571721853,-0.2855032066344963,-1.5069392998207365,-1.5101194533833755,-0.8082875277550403,0.3675894605657809,3.103285453343432
4.25,0.44764226870191237,1.451680791226688,-0.23024319300163676,-0.2857428698916381,-1.5070647559560848,-1.5103906695358988,-0.8086749561348182,0.367982398008708,3.103323008206772
4.26,0.4471653121820297,1.4513603825316623,-0.23055616202327314,-0.28598018879266895,-1.5071900124474076,-1.510658780465776,-0.8090597946444568,0.3683731267369494,3.103360109411259
4.27,0.44669287219390774,1.4510359787214058,-0.23086823793646205,-0.2862152435156467,-1.5073150959668247,-1.5109238836397276,-0.8094421550314227,0.36876175386390553,3.1033967708055634
4.28,0.44622480106664614,1.4507075795235733,-0.23117948849880743,-0.2864481077747921,-1.5074400310360765,-1.5111860686668994,-0.8098221400341358,0.36914837786747406,3.1034330051219063
4.29,0.44576096282930733,1.450375184687934,-0.2314899760993214,-0.28667884944395094,-1.5075648402339692,-1.5114454180567423,-0.8101998442509635,0.36953308942302876,3.1034688240837407
4.3,0.4453012321102995,1.4500387939841,-0.23179975826350502,-0.2869075311059983,-1.5076895443791745,-1.5117020078868681,-0.810575354905989,0.3699159721374473,3.103504238500646
4.31,0.44484549316433786,1.4496984071995367,-0.23210888809987618,-0.2871342105385585,-1.5078141626918364,-1.5119559083934937,-0.8109487525260108,0.37029710319804976,3.10353925835222
4.32,0.44439363900954454,1.4493540241378178,-0.23241741469595004,-0.2873589411447466,-1.5079387129368853,-1.5122071844950509,-0.8113201115409104,0.3706765539480795,3.1035738928624776
4.33,0.44394557065997997,1.4490056446170865,-0.23272538347042188,-0.2875817723362723,-1.5080632115514971,-1.512455896257893,-0.8116895008176197,0.371054390398536,3.1036081505660182
4.34,0.4435011964411588,1.4486532684686984,-0.23303283648726547,-0.28780274987511983,-1.508187673758772,-1.512702099311643,-0.8120569841363504,0.3714306736846612,3.1036420393670445
4.35,0.4430604313779625,1.4482968955360145,-0.23333981273660676,-0.288021916179089,-1.5083121136693851,-1.5129458452206141,-0.8124226206164514,0.37180546047414254,3.1036755665921314
4.36,0.4426231966459175,1.4479365256733336,-0.23364634838651757,-0.28823931059570546,-1.5084365443727148,-1.5131871818167801,-0.8127864650981782,0.37217880333305375,3.1037087390375406
4.37,0.44218941907809917,1.4475721587449368,-0.2339524770092818,-0.2884549696483637,-1.5085609780187303,-1.5134261534989892,-0.8131485684857594,0.37255075105469865,3.1037415630117318
4.38,0.44175903072101186,1.4472037946242358,-0.23425822978518612,-0.2886689272580226,-1.5086854258917466,-1.513662801502463,-0.8135089780563887,0.3729213489557902,3.103774044373656
4.39,0.4413319684337065,1.4468314331930097,-0.23456363568646882,-0.28888121494331753,-1.5088098984769955,-1.5138971641420558,-0.813867737739132,0.37329063914379473,3.1038061885673183
4.4,0.4409081735251731,1.446455074340721,-0.2348687216437035,-0.2890918620015658,-1.5089344055208431,-1.5141292770322907,-0.8142248883672059,0.37365866075874815,3.103838000653043
4.41,0.44048759142569915,1.4460747179638975,-0.23517351269659734,-0.2893008956728183,-1.5090589560853627,-1.5143591732867836,-0.8145804679066239,0.3740254501924217,3.1038694853358084
4.42,0.4400701713884445,1.4456903639655783,-0.23547803213092217,-0.28950834128882685,-1.5091835585978923,-1.5145868836993317,-0.8149345116638187,0.3743910412873348,3.1039006469909767
4.43,0.43965586621795893,1.4453020122548104,-0.2357823016030827,-0.28971422240856237,-1.509308220896116,-1.5148124369086549,-0.8152870524745203,0.3747554655178,3.1039314896877017
4.44,0.4392446320227776,1.4449096627461955,-0.23608634125363523,-0.28991856094171425,-1.5094329502691464,-1.5150358595485232,-0.8156381208758811,0.37511875215491014,3.10396201721026
4.45,0.43883642798958006,1.4445133153594774,-0.2363901698109118,-0.29012137726142523,-1.509557753495027,-1.515257176384802,-0.8159877452635981,0.37548092841714487,3.103992233077523
4.46,0.43843121617670056,1.444112970019167,-0.2366938046857647,-0.2903226903073671,-1.50968263687502,-1.5154764104407545,-0.816335952035573,0.3758420196080722,3.1040221405607613
4.47,0.4380289613250404,1.4437086266542027,-0.2369972620583252,-0.2905225176801291,-1.509807606265004,-1.5156935831117826,-0.8166827657234629,0.37620204924244377,3.104051742699946
4.48,0.4376296306846571,1.443300285197638,-0.23730055695756894,-0.2907208757277807,-1.50993266710427,-1.5159087142706567,-0.8170282091133259,0.37656103916183636,3.1040810423187035
4.49,0.4372331938555055,1.4428879455863595,-0.237603703334388,-0.290917779625371,-1.5100578244419645,-1.5161218223641573,-0.8173723033564196,0.3769190096408551,3.104110042038044
4.5,0.436839622640972,1.4424716077608266,-0.23790671412879205,-0.2911132434480409,-1.5101830829614098,-1.516332924501953,-0.8177150680710994,0.37727597948480535,3.1041387442889916
4.51,0.43644889091299943,1.4420512716648337,-0.23820960133179178,-0.29130728023834995,-1.5103084470025008,-1.5165420365384465,-0.8180565214366526,0.3776319661196348,3.104167151324212
4.52,0.4360609744877266,1.4416269372452928,-0.23851237604245706,-0.2914999020683549,-1.5104339205823525,-1.516749173148239,-0.8183966802798176,0.3779869856748638,3.1041952652287375
4.53,0.4356758510106828,1.4411986044520326,-0.2388150485205912,-0.29169112009691794,-1.5105595074143632,-1.5169543478957968,-0.8187355601546545,0.37834105306014343,3.1042230879298627
4.54,0.4352934998506773,1.4407662732376152,-0.23911762823541557,-0.2918809446226747,-1.510685210925833,-1.517157573299841,-0.8190731754163676,0.3786941820360151,3.104250621206296
4.55,0.43491390200161817,1.440329943557165,-0.23942012391061582,-0.2920693851330447,-1.510811034274267,-1.517358860892928,-0.8194095392896104,0.3790463852793829,3.104277866696624
4.5600000000000005,0.4345370399915654,1.439889615368215,-0.23972254356606876,-0.2922564503496299,-1.510936980362474,-1.517558221276637,-0.8197446639317576,0.37939767444416045,3.104304825907152
4.57,0.4341628977983993,1.43944528863056,-0.24002489455653375,-0.29244214827031123,-1.5110630518525696,-1.5177556641727439,-0.8200785604915752,0.3797480602175074,3.104331500219177
4.58,0.4337914607715437,1.438996963306124,-0.2403271836075666,-0.29262648620832304,-1.5111892511789742,-1.5179511984707235,-0.8204112391636776,0.3800975523720276,3.104357890895736
4.59,0.4334227155592398,1.4385446393588373,-0.24062941684888567,-0.2928094708285561,-1.5113155805604859,-1.5181448322718807,-0.8207427092391234,0.3804461598142656,3.1043839990878768
4.6,0.4330566500409138,1.4380883167545218,-0.24093159984540183,-0.2929911081813185,-1.5114420420115113,-1.5183365729303913,-0.8210729791524671,0.380793890629807,3.1044098258404897
4.61,0.43269325326422614,1.4376279954607853,-0.2412337376260995,-0.2931714037337598,-1.5115686373525172,-1.518526427091503,-0.8214020565255542,0.3811407521252559,3.104435372097734
4.62,0.43232985849027294,1.4371636748817707,-0.2415370525294615,-0.2933516886764784,-1.5116958087903432,-1.5187160132648339,-0.8217317959597564,0.3814885216968316,3.1044608678408863
4.63,0.4319633382371272,1.4366953543046166,-0.24184297808636276,-0.29353352419510187,-1.5118240749356784,-1.5189072295953696,-0.8220643724855882,0.38183928383172133,3.104486582785821
4.64,0.43159368747662363,1.4362230337274628,-0.24215151660175288,-0.2937169127996028,-1.511953436622415,-1.5191000791347786,-0.8223997896000428,0.38219304188139247,3.104512517366161
4.65,0.4312209062087623,1.4357467131503088,-0.24246266807563194,-0.2939018544899812,-1.5120838938505525,-1.519294561883061,-0.8227380473031203,0.38254979584584503,3.1045386715819063
4.66,0.43084499443354324,1.4352663925731548,-0.24277643250799985,-0.294088349266237,-1.5122154466200914,-1.5194906778402164,-0.8230791455948206,0.3829095457250791,3.1045650454330573
4.67,0.4304659521509662,1.4347820719960007,-0.24309280989885673,-0.2942763971283703,-1.5123480949310317,-1.5196884270062452,-0.8234230844751439,0.3832722915190947,3.104591638919613
4.68,0.4300837793610315,1.4342937514188467,-0.24341180024820255,-0.294465998076381,-1.5124818387833734,-1.5198878093811472,-0.8237698639440902,0.3836380332278917,3.1046184520415743
4.6899999999999995,0.429698476063739,1.4338014308416929,-0.24373340355603726,-0.2946571521102692,-1.5126166781771162,-1.5200888249649225,-0.8241194840016592,0.38400677085147017,3.10464548479894
4.7,0.42931004225908864,1.4333051102645387,-0.24405761982236085,-0.2948498592300348,-1.5127526131122602,-1.5202914737575712,-0.8244719446478512,0.3843785043898301,3.104672737191712
4.71,0.42891847794708066,1.432804789687385,-0.24438444904717332,-0.29504411943567777,-1.5128896435888055,-1.5204957557590932,-0.824827245882666,0.38475323384297144,3.1047002092198888
4.72,0.4285237831277149,1.432300469110231,-0.24471389123047474,-0.2952399327271983,-1.5130277696067522,-1.5207016709694885,-0.8251853877061037,0.38513095921089435,3.1047279008834705
4.73,0.4281259578009913,1.431792148533077,-0.245045946372265,-0.2954372991045962,-1.5131669911660999,-1.5209092193887568,-0.8255463701181641,0.3855116804935985,3.104755812182457
4.74,0.42772500196690977,1.431279827955923,-0.24538061447254425,-0.2956362185678716,-1.5133073082668491,-1.5211184010168985,-0.8259101931188477,0.3858953976910844,3.10478394311685
4.75,0.4273209156254706,1.430763507378769,-0.24571789553131237,-0.2958366911170244,-1.5134487209089995,-1.5213292158539136,-0.8262768567081541,0.3862821108033516,3.1048122936866474
4.76,0.4269136987766736,1.430243186801615,-0.24605778954856944,-0.29603871675205473,-1.5135912290925515,-1.5215416638998018,-0.8266463608860835,0.38667181983040033,3.1048408638918508
4.77,0.42650335142051876,1.429718866224461,-0.24640029652431544,-0.29624229547296244,-1.5137348328175044,-1.5217557451545634,-0.8270187056526356,0.3870645247722305,3.1048696537324583
4.78,0.4260898735570062,1.429190545647307,-0.24674541645855025,-0.29644742727974754,-1.5138795320838585,-1.5219714596181981,-0.8273938910078106,0.38746022562884214,3.1048986632084716
4.79,0.4256732651861359,1.4286582250701532,-0.24709314935127402,-0.2966541121724101,-1.5140253268916142,-1.5221888072907062,-0.8277719169516085,0.3878589224002352,3.10492789231989
4.8,0.4252535263079078,1.4281219044929994,-0.24744349520248665,-0.29686235015095014,-1.514172217240771,-1.5224077881720874,-0.8281527834840293,0.38826061508640974,3.104957341066714
4.8100000000000005,0.4248306569223218,1.4275815839158452,-0.24779645401218825,-0.2970721412153676,-1.5143202031313292,-1.522628402262342,-0.828536490605073,0.38866530368736574,3.104987009448943
4.82,0.4244046570293781,1.4270372633386912,-0.24815202578037876,-0.29728348536566257,-1.5144692845632886,-1.52285064956147,-0.8289230383147397,0.38907298820310326,3.1050168974665775
4.83,0.4239755266290766,1.4264889427615373,-0.24851021050705815,-0.2974963826018349,-1.514619461536649,-1.5230745300694712,-0.8293124266130291,0.38948366863362216,3.1050470051196166
4.84,0.4235432657214173,1.4259366221843832,-0.24887100819222646,-0.2977108329238847,-1.514770734051411,-1.5233000437863455,-0.8297046554999414,0.3898973449789226,3.1050773324080616
4.85,0.4231078743064003,1.4253803016072295,-0.24923441883588368,-0.29792683633181194,-1.5149231021075742,-1.5235271907120933,-0.8300997249754767,0.3903140172390044,3.105107879331911
4.86,0.4226693523840255,1.4248199810300755,-0.24960044243802978,-0.29814439282561667,-1.5150765657051388,-1.523755970846714,-0.8304976350396347,0.39073368541386777,3.1051386458911665
4.87,0.4222276999542929,1.4242556604529215,-0.24996907899866477,-0.2983635024052988,-1.5152311248441044,-1.5239863841902084,-0.8308983856924157,0.3911563495035125,3.105169632085827
4.88,0.4217829170172025,1.4236873398757677,-0.2503403285177887,-0.2985841650708584,-1.5153867795244713,-1.524218430742576,-0.8313019769338196,0.39158200950793876,3.105200837915892
4.89,0.4213350035727542,1.4231150192986135,-0.2507141909954016,-0.2988063808222954,-1.5155435297462398,-1.5244521105038167,-0.8317084087638463,0.39201066542714647,3.105232263381363
4.9,0.42088395962094816,1.4225386987214597,-0.2510906664315034,-0.29903014965960995,-1.5157013755094093,-1.5246874234739307,-0.8321176811824961,0.3924423172611357,3.105263908482239
4.91,0.4204297851617844,1.4219583781443057,-0.251469754826094,-0.2992554715828018,-1.51586031681398,-1.524924369652918,-0.8325297941897686,0.3928769650099063,3.1052957732185207
4.92,0.41997248019526284,1.4213740575671516,-0.2518514561791736,-0.2994823465918711,-1.5160203536599521,-1.5251629490407788,-0.832944747785664,0.3933146086734584,3.105327857590207
4.93,0.41951204472138354,1.4207857369899977,-0.25223577049074203,-0.2997107746868179,-1.5161814860473255,-1.5254031616375126,-0.8333625419701822,0.3937552482517919,3.1053601615972983
4.9399999999999995,0.4190484787401464,1.420193416412844,-0.25262269776079943,-0.2999407558676422,-1.5163437139761002,-1.5256450074431194,-0.8337831767433235,0.39419888374490697,3.1053926852397953
4.95,0.41858178225155146,1.4195970958356898,-0.25301223798934575,-0.3001722901343439,-1.5165070374462761,-1.5258884864576001,-0.8342066521050876,0.39464551515280344,3.1054254285176977
4.96,0.41811195525559874,1.418996775258536,-0.25340439117638097,-0.300405377486923,-1.5166714564578532,-1.5261335986809534,-0.8346329680554746,0.39509514247548144,3.105458391431005
4.97,0.41763899775228824,1.418392454681382,-0.25379915732190506,-0.30064001792537953,-1.5168369710108318,-1.5263803441131807,-0.8350621245944845,0.3955477657129408,3.1054915739797178
4.98,0.4171629097416199,1.4177841341042279,-0.25419653642591816,-0.3008762114497136,-1.5170035811052114,-1.5266287227542807,-0.8354941217221172,0.3960033848651818,3.1055249761638355
4.99,0.41668370297871776,1.4171718135288511,-0.25459651815196416,-0.30111395913315325,-1.5171712871076786,-1.5268787325430297,-0.8359289564160358,0.3964619965793064,3.105558597704701
5.0,0.41620646087350577,1.416555494529339,-0.2549946326099752,-0.30135372471432065,-1.5173402473483366,-1.5271294819008536,-0.8363653212805936,0.3969221504977943,3.105592318069692
5.01,0.41573534675499163,1.4159351784232095,-0.2553872189466605,-0.3015958879836045,-1.5175105914915947,-1.5273802406143637,-0.8368021455401468,0.3973826587582921,3.105626038541176
5.02,0.41527033178729544,1.4153108651477968,-0.25577430251580235,-0.3018404463351329,-1.5176823186553496,-1.5276310137556495,-0.8372394366383094,0.397843529616276,3.105659759804834
5.03,0.41481138985703786,1.4146825546439328,-0.25615590627735574,-0.3020873974101757,-1.5178554280415018,-1.527881805918581,-0.8376772013171478,0.3983047705490643,3.105693482481696
5.04,0.41435849745528197,1.4140502468557707,-0.2565320509012524,-0.30233673908643943,-1.5180299189323208,-1.5281326212395545,-0.8381154456476155,0.3987663882895747,3.1057272071309487
5.05,0.4139116335675065,1.4134139417306189,-0.2569027548641446,-0.30258846946809015,-1.5182057906870579,-1.5283834634168245,-0.8385541750579174,0.39922838885778533,3.105760934252546
5.06,0.4134707795710162,1.4127736392187893,-0.2572680345396086,-0.30284258687644994,-1.5183830427387854,-1.5286343357285308,-0.838993394359956,0.3996907775900678,3.1057946642896477
5.07,0.41303591913924664,1.4121293392734549,-0.25762790428228605,-0.3030990898413191,-1.5185616745914512,-1.528885241049511,-0.8394331077740006,0.40015355916654993,3.1058283976308907
5.08,0.412607038152473,1.4114810418505175,-0.25798237650639566,-0.303357977092878,-1.5187416858171277,-1.529136181866992,-0.8398733189517047,0.4006167376366459,3.1058621346125124
5.09,0.4121841246144688,1.4108287469084873,-0.25833146175901206,-0.3036192475541286,-1.5189230760534445,-1.5293871602952311,-0.84031403099759,0.4010803164428854,3.1058958755203285
5.1,0.4117671685747042,1.410172454408366,-0.25867516878847463,-0.30388290033383875,-1.5191058450011936,-1.5296381780891877,-0.8407552464891013,0.40154429844315864,3.1059296205915814
5.11,0.4113561620557083,1.4095121643135438,-0.2590135046082557,-0.3041489347199532,-1.5192899924220902,-1.5298892366572847,-0.841196967495331,0.40200868593148464,3.105963370016667
5.12,0.4109510989852476,1.4088478765896988,-0.2593464745565935,-0.30441735017344274,-1.5194755181366841,-1.530140337073325,-0.8416391955945012,0.402473480657402,3.105997123940743
5.13,0.41055197513300723,1.4081795912047073,-0.2596740823521671,-0.304688146322561,-1.5196624220224093,-1.5303914800876173,-0.8420819318902851,0.4029386838440727,3.1060308824652343
5.14,0.41015878805148337,1.4075073081285565,-0.2599963301460674,-0.3049613229574827,-1.519850704011762,-1.5306426661373596,-0.8425251770270433,0.40340429620518103,3.106064645649238
5.15,0.4097715370208212,1.4068310273332678,-0.2603132185702996,-0.3052368800253002,-1.520040364090602,-1.5308938953563318,-0.8429689312040418,0.4038703179607048,3.1060984135108316
5.16,0.4093902229973544,1.4061507487928213,-0.2606247467830312,-0.3055148176253553,-1.5202314022965664,-1.5311451675839372,-0.8434131941887169,0.40433674885162785,3.106132186028296
5.17,0.40901484856562015,1.4054664724830876,-0.26093091251078326,-0.30579513600488684,-1.520423818717592,-1.5313964823736324,-0.8438579653290434,0.404803588153659,3.1061659631412564
5.18,0.40864541789364534,1.4047781983817655,-0.2612317120877463,-0.3060778355549739,-1.520617613490536,-1.5316478390007837,-0.8443032435650604,0.4052708346900157,3.1061997447517418
5.19,0.40828193669131146,1.404085926468322,-0.2615271404923888,-0.30636291680675914,-1.5208127867998944,-1.531899236469982,-0.8447490274396012,0.4057384868433266,3.106233530725177
5.2,0.4079244121716253,1.4033896567239375,-0.26181719138151055,-0.3066503804279353,-1.521009338876607,-1.5321506735218462,-0.8451953151082782,0.4062065425667049,3.1062673208912996
5.21,0.4075728530147332,1.4026893891314556,-0.26210185712188394,-0.30694022721948033,-1.5212072699969499,-1.5324021486393464,-0.8456421043487558,0.40667499939403545,3.106301115045017
5.22,0.4072272693345319,1.4019851236753365,-0.2623811288196124,-0.3072324581126284,-1.5214065804815053,-1.53265366005367,-0.8460893925693577,0.40714385444952067,3.1063349129471964
5.23,0.4068876726477373,1.4012768603416133,-0.2626549963473268,-0.3075270741660636,-1.5216072706942088,-1.5329052057496546,-0.8465371768170387,0.40761310445652327,3.106368714325404
5.24,0.40655407584528874,1.4005645991178521,-0.26292344836932924,-0.30782407656332555,-1.5218093410414668,-1.533156783470813,-0.846985453784755,0.40808274574574094,3.10640251887458
5.25,0.40622649316596976,1.3998483399931159,-0.26318647236478754,-0.30812346661041584,-1.5220127919713458,-1.533408390723968,-0.8474342198182634,0.40855277426274833,3.1064363262576666
5.26,0.4059049401721415,1.3991280829579302,-0.26344405464907206,-0.30842524573359653,-1.5222176239728213,-1.5336600247835135,-0.8478834709223755,0.4090231855749335,3.106470136106185
5.27,0.4055894337274889,1.3984038280042532,-0.2636961803933229,-0.3087294154773708,-1.5224238375750947,-1.533911682695326,-0.8483332027666927,0.4094939748778602,3.1065039480207624
5.28,0.40527999197669107,1.3976755751254468,-0.263942833642325,-0.30903597750263856,-1.5226314333469642,-1.534163361280336,-0.8487834106908471,0.40996513700107956,3.106537761571617
5.29,0.40497663432693254,1.3969433243162523,-0.2641839973307652,-0.30934493358501847,-1.5228404118962562,-1.5344150571377744,-0.849234089709265,0.41043666641341514,3.1065715762989954
5.3,0.40467938143117965,1.3962070755727674,-0.2644196532979366,-0.3096562856133306,-1.5230507738693093,-1.534666766648112,-0.8496852345154783,0.41090855722774394,3.1066053917135696
5.31,0.40438825517315236,1.3954668288924246,-0.2646497823009522,-0.3099700355882326,-1.5232625199505105,-1.5349184859756995,-0.8501368394859967,0.4113808032052923,3.1066392072967948
5.32,0.4041032786539288,1.3947225842739754,-0.2648743640265236,-0.31028618562100435,-1.5234756508618832,-1.5351702110711196,-0.8505888986837604,0.4118533977594648,3.1066730225012273
5.33,0.40382447618012385,1.393974341717473,-0.26509337710135505,-0.3106047379324746,-1.5236901673627212,-1.5354219376732643,-0.8510414058611865,0.4123263339592239,3.106706836750806
5.34,0.40355187325358943,1.3932221012242587,-0.2653067991011997,-0.31092569485208654,-1.5239060702492717,-1.5356736613111448,-0.8514943544628227,0.41279960453203357,3.1067406494410945
5.35,0.40328549656258855,1.3924658627969508,-0.26551460655862014,-0.3112490588170967,-1.5241233603544637,-1.5359253773054407,-0.851947737627623,0.41327320186638256,3.1067744599394937
5.36,0.40302537397440036,1.3917056264394354,-0.2657167749694904,-0.3115748323719034,-1.5243420385476785,-1.5361770807697994,-0.8524015481908518,0.4137471180138976,3.1068082675854156
5.37,0.4027715345293174,1.3909413921568583,-0.2659132787982742,-0.3119030181675019,-1.524562105734565,-1.5364287666118912,-0.8528557786856317,0.41422134469105903,3.1068420716904264
5.38,0.40252400843600006,1.3901731599556197,-0.2661040914821098,-0.31223361896106233,-1.5247835628568973,-1.5366804295342236,-0.8533104213441396,0.41469587328052887,3.106875871538356
5.39,0.4022828270681581,1.389400929843371,-0.2662891854337274,-0.3125666376156284,-1.5250064108924695,-1.5369320640347257,-0.853765468098462,0.4151706948320984,3.106909666385379
5.4,0.4020478550502428,1.3886247017798932,-0.26646867969017746,-0.3129020617806626,-1.5252306456243092,-1.5371836938564356,-0.8542209537647965,0.4156458479691332,3.10694345944132
5.41,0.40181405306615053,1.3878444743615979,-0.2666470053748977,-0.31323943166792695,-1.5254561100488848,-1.5374362028017963,-0.8546781743185241,0.4161227703861892,3.106977370187589
5.42,0.4015790524470008,1.3870602469433027,-0.2668262452837559,-0.31357853115289236,-1.5256827303642648,-1.5376900062873868,-0.855137738909608,0.4166021378463487,3.1070114547844327
5.43,0.4013428531927936,1.3862720195250073,-0.2670063994167521,-0.313919360235559,-1.52591050657045,-1.5379451043132073,-0.8555996475380483,0.4170839503496116,3.1070457132318516
